!!!COM: Beethoven, Ludwig van
!!!CDT: 1770///-1827///
!!!ODT: 1806///
!!!OTL: String Quartet No. 8 in E Minor, Op. 59, No. 2
!!!OPS: Op. 59
!!!ONM: No. 2
!!!OMV: Mvmt. 1
!!!OMD: Allegro
!!!PDT: 1808///
!!!PPP: Vienna
!!!ODE: Dem Grafen Rasoumoffsky gewidmet
!!!ONB: Op. 59 are called the Rasumovsky Quartets
!!!MPD: 1806///
**kern	**dynam	**kern	**dynam	**kern	**dynam	**kern	**dynam
*staff4	*staff4	*staff3	*staff3	*staff2	*staff2	*staff1	*staff1
*Icello	*Icello	*Iviola	*Iviola	*Ivioln	*Ivioln	*Ivioln	*Ivioln
*>[I,A,A1,A,A2,B,B1,B,B2,C]	*>[I,A,A1,A,A2,B,B1,B,B2,C]	*>[I,A,A1,A,A2,B,B1,B,B2,C]	*>[I,A,A1,A,A2,B,B1,B,B2,C]	*>[I,A,A1,A,A2,B,B1,B,B2,C]	*>[I,A,A1,A,A2,B,B1,B,B2,C]	*>[I,A,A1,A,A2,B,B1,B,B2,C]	*>[I,A,A1,A,A2,B,B1,B,B2,C]
*>norep[I,A,A2,B,B2,C]	*>norep[I,A,A2,B,B2,C]	*>norep[I,A,A2,B,B2,C]	*>norep[I,A,A2,B,B2,C]	*>norep[I,A,A2,B,B2,C]	*>norep[I,A,A2,B,B2,C]	*>norep[I,A,A2,B,B2,C]	*>norep[I,A,A2,B,B2,C]
*>I	*>I	*>I	*>I	*>I	*>I	*>I	*>I
*clefF4	*clefF4	*clefC3	*clefC3	*clefG2	*clefG2	*clefG2	*clefG2
*k[f#]	*k[f#]	*k[f#]	*k[f#]	*k[f#]	*k[f#]	*k[f#]	*k[f#]
*e:	*e:	*e:	*e:	*e:	*e:	*e:	*e:
*M6/8	*M6/8	*M6/8	*M6/8	*M6/8	*M6/8	*M6/8	*M6/8
*MM120	*MM120	*MM120	*MM120	*MM120	*MM120	*MM120	*MM120
=1-	=1-	=1-	=1-	=1-	=1-	=1-	=1-
4E'\	f	4B'\ 4e'\	f	4g'\ 4b'\ 4ee'\	f	4e'/ 4b'/ 4ee'/	f
8r	.	8r	.	8r	.	8r	.
4D#'\	.	4B'\ 4f#'\	.	4b'\ 4ff#'\	.	4b'\ 4bb'\	.
8r	.	8r	.	8r	.	8r	.
=2!|:	=2!|:	=2!|:	=2!|:	=2!|:	=2!|:	=2!|:	=2!|:
*>A	*>A	*>A	*>A	*>A	*>A	*>A	*>A
2.r	.	2.r	.	2.r	.	2.r	.
=3	=3	=3	=3	=3	=3	=3	=3
(8E\L	pp	2.r	.	4r	.	(8e/L	pp
8BB\	.	.	.	.	.	8B/	.
8G\J	.	.	.	8r	.	8g/J	.
[4.B\)	.	.	.	(4.B/	.	[4.b\)	.
=4	=4	=4	=4	=4	=4	=4	=4
4B\]	.	(4.F#/	pp	4.A/	.	(16b/LL]	.
.	.	.	.	.	.	16cc/	.
.	.	.	.	.	.	16a/	.
.	.	.	.	.	.	16f#/	.
(8BB/	.	.	.	.	.	16d#/	.
.	.	.	.	.	.	16B/JJ	.
4EE'/)	.	4E'/)	.	4G'/)	.	4e'/)	.
8r	.	8r	.	8r	.	8r	.
=5	=5	=5	=5	=5	=5	=5	=5
2.r	.	2.r	.	2.r	.	2.r	.
=6	=6	=6	=6	=6	=6	=6	=6
(8FFn/L	pp	(8Fn/L	pp	4r	.	(8fn/L	pp
8CC/	.	8C/	.	.	.	8c/	.
8AA/J)	.	8A/J	.	8r	.	8a/J	.
[4.C/	.	(4.c\)	.	(4.c/	pp	[4.cc\)	.
=7	=7	=7	=7	=7	=7	=7	=7
4C/]	.	4.G/	.	4.B-/	.	(16cc\LL]	.
.	.	.	.	.	.	16dd\	.
.	.	.	.	.	.	16b-\	.
.	.	.	.	.	.	16g\	.
(8C/	.	.	.	.	.	16e\	.
.	.	.	.	.	.	16c\JJ	.
4FFn'/)	.	4Fn'/)	.	4A'/)	.	4fn'/)	.
8r	.	8r	.	8r	.	8r	.
=8	=8	=8	=8	=8	=8	=8	=8
2.r	.	2.r	.	2.r	.	2.r	.
=9	=9	=9	=9	=9	=9	=9	=9
2.r	.	8f#\L	.	2.r	.	4r	.
.	.	8d#\	.	.	.	.	.
.	.	[8a\J	.	.	.	8r	.
.	.	4.a\_	>	.	.	(8dd#\L	.
.	.	.	.	.	.	8cc\	.
.	.	.	.	.	.	[8ff#\J)	.
=10	=10	=10	=10	=10	=10	=10	=10
2.d#\	p	2.a\]	p	(4.cc\	p	2.ff#\]	>
.	.	.	.	4.b\)	.	.	.
=11	=11	=11	=11	=11	=11	=11	=11
4r	.	2.r	p	(8d#/L	.	(8ff#\L	p
.	.	.	.	8B/	.	8dd#\	.
8r	.	.	.	[8f#/J)	.	[8aa\J)	.
(8AA/L	p	.	.	4.f#/_	.	4.aa\_	>
8FF#/	<	.	.	.	.	.	.
[8C/J)	.	.	.	.	.	.	.
=12	=12	=12	=12	=12	=12	=12	=12
(4.C/]	>	2.D#/	p	2.f#/]	>	2.aa\]	p
4.BB/)	.	.	.	.	.	.	.
=13	=13	=13	=13	=13	=13	=13	=13
[2.BB/	<	4E/	<	(4.g/	p	(8.gg\L	<
.	.	.	.	.	.	16ee\L	.
.	.	(8E/	.	.	.	16gg\	.
.	.	.	.	.	.	16ee\JJ	>
.	.	4F#/	.	8a/L	<	[4.dd#\)	.
.	.	.	.	16cc/L	>	.	.
.	.	.	.	16b/	.	.	.
.	.	16c\LL	>	16f#/	.	.	.
.	.	16B/JJ)	.	16a/JJ)	.	.	.
=14	=14	=14	=14	=14	=14	=14	=14
2.BB/]	>	(4B/	.	4g/	.	(16dd#\LL]	<
.	.	.	.	.	.	16ee\	.
.	.	.	.	.	.	16ff#\	.
.	.	.	.	.	.	16ee\	.
.	.	8E/	<	(8g/	<	16gg\	.
.	.	.	.	.	.	16ee\JJ	.
.	.	4F#/	.	16a/LL)	.	(8ee\)	>
.	.	.	.	(16a/	>	.	.
.	.	.	.	16cc/	.	4dd#\)	.
.	.	.	.	16b/	.	.	.
.	.	16c\LL	>	16f#/	.	.	.
.	.	16B/JJ)	.	16a/JJ)	.	.	.
=15	=15	=15	=15	=15	=15	=15	=15
8E\	<	8B/	.	8g/	.	(16ee\LL	.
.	.	.	.	.	.	16dd#\	.
8r	.	8r	.	8r	.	16ee\	.
.	.	.	.	.	.	16ff#\	.
8r	.	8r	.	16r	.	16gg\	.
.	.	.	.	(16B/	.	16b\JJ	.
8AA/	.	8A/	.	16c/LL	.	16cc\LL	.
.	.	.	.	16d/	.	16ddn\	.
8r	.	8r	.	16e/	.	16ee\	.
.	.	.	.	16G#/	.	16g#\	.
8r	.	8r	.	16A/	.	16a\	.
.	.	.	.	16B/JJ	.	16b\JJ)	.
=16	=16	=16	=16	=16	=16	=16	=16
2.r	.	16r	.	8c/)	.	(16cc/LL	.
.	.	(16E/LL	.	.	.	16e/	.
.	.	16Fn/	.	8r	.	16fn/	.
.	.	16G/	.	.	.	16gn/	.
.	.	16A/	.	8r	.	16a/	.
.	.	16C/JJ	.	.	.	16c/JJ	.
.	.	16D/LL	.	4r	.	16d/LL	.
.	.	16E/	.	.	.	16e/	.
.	.	16F/	.	.	.	16f/	.
.	.	16G/	.	.	.	16g/	.
.	.	16A/	.	8r	.	16a/	.
.	.	16B/JJ	.	.	.	16b/JJ	.
=17	=17	=17	=17	=17	=17	=17	=17
2.r	.	16c/LL	.	2.r	.	16cc\LL	.
.	.	16B/	.	.	.	16b\	.
.	.	16d/	.	.	.	16dd\	.
.	.	16c/	.	.	.	16cc\	.
.	.	16B/	.	.	.	16b\	.
.	.	16A/JJ	.	.	.	16a\JJ	.
.	.	16G/LL	.	.	.	16g/LL	.
.	.	16Fn/	.	.	.	16fn/	.
.	.	16E/	.	.	.	16e/	.
.	.	16F/	.	.	.	16f/	.
.	.	16A/	.	.	.	16a/	.
.	.	16c/JJ)	.	.	.	16cc/JJ)	.
=18	=18	=18	=18	=18	=18	=18	=18
8r	.	(8c/	<	8r	.	(8cc\	<
8AA#/L	.	[4G/)	.	8c#/L	<	[4e/)	.
8AA#/J	<	.	.	8c#/J	.	.	.
8BB/L	.	(8G/L]	.	(8B/L	.	(8e/L]	.
8BB/	.	8B/	.	8e/	.	8g/	.
8BB/J	.	8A/J)	.	8d#/J)	.	8f#/J)	.
=19	=19	=19	=19	=19	=19	=19	=19
4C'/	f	4A'/	f	4d#'/	f	4f#'/	f
8r	.	8r	.	8r	.	8r	.
4DD#'/	.	4d#'\ 4f#'\	.	4b'\ 4ff#'\	.	4b'\ 4bb'\	.
8r	.	8r	.	8r	.	8r	.
=20	=20	=20	=20	=20	=20	=20	=20
2.r	.	2.r	.	2.r	.	2.r	.
=21	=21	=21	=21	=21	=21	=21	=21
2.E\	p	8r	.	8.r	.	8r	.
.	.	8r	.	.	.	8r	.
.	.	.	.	(16e/LL	p	.	.
.	.	(8G/	p	16g/	.	(8ee\	p
.	.	.	.	16e/JJ	.	.	.
.	.	8A/L	.	[4.d#/)	.	4ff#\	.
.	.	16c/L	.	.	.	.	.
.	.	16B/	.	.	.	.	.
.	.	16F#/	.	.	.	16ccc\LL	.
.	.	16A/JJ)	.	.	.	16bb\JJ)	.
=22	=22	=22	=22	=22	=22	=22	=22
2.E\	.	(8A/L	.	(16d#/LL]	.	(4bb\	.
.	.	.	.	16e/	.	.	.
.	.	8G/)	.	16f#/	.	.	.
.	.	.	.	16e/	.	.	.
.	.	8G'/J	.	16g/	.	8ee\	.
.	.	.	.	16e/JJ	.	.	.
.	.	(8A/L	.	4.d#/)	.	4ff#\	.
.	.	16c/L	.	.	.	.	.
.	.	16B/	.	.	.	.	.
.	.	16F#/	.	.	.	16ccc\LL	.
.	.	16A/JJ	.	.	.	16bb\JJ)	.
=23	=23	=23	=23	=23	=23	=23	=23
4E\	.	4G/)	.	(16e/LL	.	8bb\	.
.	.	.	.	16d#/	.	.	.
.	.	.	.	16e/	.	8r	.
.	.	.	.	16f#/	.	.	.
8r	.	8r	.	16g/	.	16r	.
.	.	.	.	16B/JJ	.	(16b\	.
4AA/	.	4A/	.	16c/LL	.	16cc\LL	.
.	.	.	.	16dn/	.	16dd\	.
.	.	.	.	16e/	.	16ee\	.
.	.	.	.	16G#/	.	16g#\	.
8r	.	8r	.	16A/	.	16a\	.
.	.	.	.	16B/JJ	.	16b\JJ	.
=24	=24	=24	=24	=24	=24	=24	=24
2.r	.	16r	.	8c/)	.	16cc/LL	.
.	.	(16E/LL	<	.	.	16e/	<
.	.	16Fn/	.	8r	.	16fn/	.
.	.	16G/	.	.	.	16gn/	.
.	.	16A/	.	8r	.	16a/	.
.	.	16C/JJ	.	.	.	16c/JJ	.
.	.	16D/LL	.	4r	.	16d/LL	.
.	.	16E/	.	.	.	16e/	.
.	.	16F/	.	.	.	16f/	.
.	.	16G/	.	.	.	16g/	.
.	.	16A/	.	8r	.	16a/	.
.	.	16B/JJ	.	.	.	16b/JJ	.
=25	=25	=25	=25	=25	=25	=25	=25
8r	.	8c\)	.	(16c/LL	<	16cc\LL	.
.	.	.	.	16d/	.	16dd\	.
16r	<	16r	.	16e/	.	16ee\	.
(16FFn/LL	.	(16Fn/LL	.	16fn/	.	16ffn\	.
16GG/	.	16G/	.	16g/	.	16gg\	.
16AA/JJ	.	16A/JJ	.	16a/JJ	.	16aa\JJ	.
16BB/LL	.	16B\LL	.	16b\LL	.	16bb\LL	.
16C/	.	16c\	.	16cc\	.	16ccc\	.
16D/	.	16d\	.	16dd\	.	16ddd\	.
16E/)	.	16e\)	.	16ee\)	.	16eee\)	.
16Fn'/	.	16fn'\	.	16ffn'\	.	16fffn'\	.
16AA-'/JJ	.	16C'\JJ	.	16f'\JJ	.	16fff'\JJ	.
=26	=26	=26	=26	=26	=26	=26	=26
16GG/LL	ff	16D/LL	ff	16b/LL	ff	[4.fffn\	ff
16GG/	.	16D/	.	16B/	.	.	.
16GG/	.	16D/	.	16B/	.	.	.
16GG/	.	16D/	.	16B/	.	.	.
16GG/	.	16D/	.	16B/	.	.	.
16GG/	.	16D/	.	16B/JJ	.	.	.
16GG/	.	16D/	.	16B/LL	.	4fff\]	.
16GG/	.	16D/	.	16B/	.	.	.
16GG/	.	16D/	.	16B/	.	.	.
16GG/	.	16D/	.	16B/	.	.	.
16GG/	.	16D/	.	16B/	.	8fn/	.
16GG/JJ	.	16D/JJ	.	16B/JJ	.	.	.
=27	=27	=27	=27	=27	=27	=27	=27
4C/	.	[4.cc\	.	[4.ee-\	.	(16e-/LL	.
.	.	.	.	.	.	16g/	.
.	.	.	.	.	.	16cc/	.
.	.	.	.	.	.	16g/	.
8r	.	.	.	.	.	16ee-/	.
.	.	.	.	.	.	16cc/JJ	.
4r	.	4cc\]	.	4ee-\]	.	16gg\LL	.
.	.	.	.	.	.	16ee-\	.
.	.	.	.	.	.	16ccc\	.
.	.	.	.	.	.	16gg\)	.
8r	.	8c\	.	8e-/	.	16eee-'\	.
.	.	.	.	.	.	16eee-'\JJ	.
=28	=28	=28	=28	=28	=28	=28	=28
16FF#/LL	.	16d\LL	.	16c/LL 16a/	.	[4.ddd\	.
16FF#/	.	16d\	.	16c/ 16a/	.	.	.
16FF#/	.	16d\	.	16c/ 16a/	.	.	.
16FF#/	.	16d\	.	16c/ 16a/	.	.	.
16FF#/	.	16d\	.	16c/ 16a/	.	.	.
16FF#/	.	16d\	.	16c/ 16a/	.	.	.
16FF#/	.	16d\	.	16c/ 16a/	.	4ddd\]	.
16FF#/	.	16d\	.	16c/ 16a/	.	.	.
16FF#/	.	16d\	.	16c/ 16a/	.	.	.
16FF#/	.	16d\	.	16c/ 16a/	.	.	.
16FF#/	.	16d\	.	16c/ 16a/	.	8c/	.
16FF#/JJ	.	16d\JJ	.	16c/JJ 16a/	.	.	.
=29	=29	=29	=29	=29	=29	=29	=29
.	.	.	.	.	.	Bq/LL	.
.	.	.	.	.	.	cq/JJ	.
4GG/	.	[4.g\	.	[4.b-\	.	(16B-/LL	.
.	.	.	.	.	.	16d/	.
.	.	.	.	.	.	16g/	.
.	.	.	.	.	.	16d/	.
8r	.	.	.	.	.	16b-/	.
.	.	.	.	.	.	16g/JJ	.
4r	.	4g\]	.	4b-\]	.	16dd\LL	.
.	.	.	.	.	.	16b-\	.
.	.	.	.	.	.	16gg\	.
.	.	.	.	.	.	16dd\)	.
8r	.	8G/	.	8B-/	.	16bb-'\	.
.	.	.	.	.	.	16bb-'\JJ	.
=30	=30	=30	=30	=30	=30	=30	=30
16EE-/LL	.	16E-/LL	.	16G/LL 16g/	.	[4.bb-\	.
16EE-/	.	16E-/	.	16G/ 16g/	.	.	.
16EE-/	.	16E-/	.	16G/ 16g/	.	.	.
16EE-/	.	16E-/	.	16G/ 16g/	.	.	.
16EE-/	.	16E-/	.	16G/ 16g/	.	.	.
16EE-/	.	16E-/	.	16G/ 16g/	.	.	.
16EE-/	.	16E-/	.	16G/ 16g/	.	4bb-\]	.
16EE-/	.	16E-/	.	16G/ 16g/	.	.	.
16EE-/	.	16E-/	.	16G/ 16g/	.	.	.
16EE-/	.	16E-/	.	16G/ 16g/	.	.	.
16EE-/	.	16E-/	.	16G/ 16g/	.	8c#/	.
16EE-/JJ	.	16E-/JJ	.	16G/JJ 16g/	.	.	.
=31	=31	=31	=31	=31	=31	=31	=31
[4.DD/	.	(8.D/L	.	(4f#/	.	(16d/LL	.
.	.	.	.	.	.	16a/	.
.	.	.	.	.	.	16dd/	.
.	.	16E-/L	f	.	.	16ccn/J	f
.	.	16C/	.	8g/)	f	8b-/J	.
.	.	16C#/JJ	.	.	.	.	.
(8.DD/L]	f	8D/)	.	(16f#/LL	.	4a/	.
.	.	.	.	16A/	.	.	.
.	.	8r	.	16d/	.	.	.
16EE-/L	.	.	.	16c/	.	.	.
16CC/	.	8r	.	16B-/	.	8g/)	.
16CC#/JJ)	.	.	.	16b-/JJ)	.	.	.
=32	=32	=32	=32	=32	=32	=32	=32
[4.DD/	.	16r	.	(16a\LL	.	(16f#\LL	.
.	.	(16g\LL	.	16b-\	.	16ee-\	.
.	.	16a\	.	16cc\	.	16cc\	.
.	.	16g\	.	16b-\	.	16cc#\	.
.	.	16f#\	.	16a\	.	16dd\	.
.	.	16e-\JJ	.	16cc#\JJ	.	16gg\JJ	.
8.DD/L]	.	16d\LL	.	16dd\LL	.	16ff#\LL	.
.	.	16c#\	.	16gg\	.	16bb-\	.
.	.	16d\	.	16ff#\	.	16aa\	.
(16AA/L	.	16en\	.	16gg\	.	16ccc#\	.
16DD/	.	16d\	.	16ff#\	.	16ddd\	.
16AA/JJ)	.	16e\JJ)	.	16gg\JJ)	.	16ccc#\JJ)	.
=33	=33	=33	=33	=33	=33	=33	=33
(16DD/LL	.	8d'/L	.	8ff#'\L	.	8ddd'\L	.
16CC#/	.	.	.	.	.	.	.
16DD/	.	8D'/	.	8a'\ 8ff#'\	.	8ddd'\	.
16CC#/	.	.	.	.	.	.	.
16DD/	.	8D'/J	.	8a'\J 8ff#'\	.	8ddd'\J	.
16CC#/JJ)	.	.	.	.	.	.	.
[4.DD/	.	(16D/LL	.	8a\ 8ff#\	.	8ddd\	.
.	.	16C#/	.	.	.	.	.
.	.	16D/	.	8r	.	8r	.
.	.	16C#/	.	.	.	.	.
.	.	16D/	.	8r	.	8r	.
.	.	16C#/JJ)	.	.	.	.	.
=34	=34	=34	=34	=34	=34	=34	=34
2.DD/_	.	(16D/LL	.	2.r	.	2.r	.
.	.	16C#/	.	.	.	.	.
.	.	16D/	.	.	.	.	.
.	.	16C#/	.	.	.	.	.
.	.	16D/	.	.	.	.	.
.	.	16C#/JJ	.	.	.	.	.
.	.	16D/LL	.	.	.	.	.
.	.	16C#/	.	.	.	.	.
.	.	16D/	.	.	.	.	.
.	.	16C#/	.	.	.	.	.
.	.	16D/	.	.	.	.	.
.	.	16C#/JJ)	.	.	.	.	.
=35	=35	=35	=35	=35	=35	=35	=35
(8.DD/L]	>	(16D/LL	p	2.r	.	2.r	.
.	.	16Cn/	.	.	.	.	.
.	.	16D/	.	.	.	.	.
16FF#/L	.	16C/	.	.	.	.	.
16EE/	.	16D/	.	.	.	.	.
16GG/JJ	.	16C/JJ	.	.	.	.	.
8.FF#/L	.	16D/LL	.	.	.	.	.
.	.	16C/	.	.	.	.	.
.	.	16D/	.	.	.	.	.
16AA/L	.	16C/	.	.	.	.	.
16GG#/	.	16D/	.	.	.	.	.
16BB/JJ)	.	16C/JJ)	.	.	.	.	.
=36	=36	=36	=36	=36	=36	=36	=36
4AA/	.	(16D/LL	.	2.r	.	(8.aa\L	p
.	.	16C/	.	.	.	.	.
.	.	16D/	.	.	.	.	.
.	.	16C/	.	.	.	16ff#\L	.
8r	.	16D/	.	.	.	16gg\	.
.	.	16C/JJ	.	.	.	16ee\JJ)	.
4r	.	16D/LL	.	.	.	8dd'\L	.
.	.	16C/	.	.	.	.	.
.	.	16D/	.	.	.	8dd'\	.
.	.	16C/	.	.	.	.	.
8r	.	16D/	.	.	.	8dd'\J	.
.	.	16C/JJ)	.	.	.	.	.
=37	=37	=37	=37	=37	=37	=37	=37
(8.FF#/L	.	(16D/LL	.	2.r	.	4dd\	.
.	.	16C/	.	.	.	.	.
.	.	16D/	.	.	.	.	.
16AA/L	.	16C/	.	.	.	.	.
16GG#/	.	16D/	.	.	.	8r	.
16BB/JJ	.	16C/JJ	.	.	.	.	.
8.AA/L	.	16D/LL	.	.	.	4r	.
.	.	16C/	.	.	.	.	.
.	.	16D/	.	.	.	.	.
16C/L	.	16C/	.	.	.	.	.
16BB/	.	16D/	.	.	.	8r	.
16D/JJ)	.	16C/JJ)	.	.	.	.	.
=38	=38	=38	=38	=38	=38	=38	=38
4C/	.	(16D/LL	.	(16f#/LL	p	(8.ccc\L	.
.	.	16C/	.	16d/	.	.	.
.	.	16D/	.	16f#/	.	.	.
.	.	16C/	.	16d/	.	16bb\L	.
8r	.	16D/	.	16f#/	.	16aa\	.
.	.	16C/JJ	.	16d/JJ	.	16gg#\JJ	.
4r	.	16D/LL	.	16f#/LL	.	16aa\LL	.
.	.	16C/	.	16d/	.	16bb\	.
.	.	16D/	.	16f#/	.	16ccc\	.
.	.	16C/	.	16d/	.	16ddd\	.
(8C/	.	16F#/	.	16f#/	.	16eee\	.
.	.	16D/JJ)	.	16d/JJ)	.	16ddd\JJ)	.
=39	=39	=39	=39	=39	=39	=39	=39
4BB/)	.	(16G/LL	.	(16g/LL	.	(4ddd\	.
.	.	16D/	.	16d/	.	.	.
.	.	16G/	.	16g/	.	.	.
.	.	16D/	.	16d/	.	.	.
8r	.	16G/	.	16g/	.	8gggn\	.
.	.	16D/JJ	.	16d/JJ)	.	.	.
4C/	.	16G/LL	.	(16g/LL	.	4fff#\	.
.	.	16E/	.	16e/	.	.	.
.	.	16G/	.	16g/	.	.	.
.	.	16E/	.	16e/	.	.	.
8r	.	16G/	.	16g/	.	8eee\)	.
.	.	16E/JJ)	.	16e/JJ)	.	.	.
=40	=40	=40	=40	=40	=40	=40	=40
4D\	.	(16F#/LL	.	(16f#/LL	.	(4ddd\	.
.	.	16A/	.	16a/	.	.	.
.	.	16D/	.	16d/	.	.	.
.	.	16F#/	.	16f#/	.	.	.
8r	.	16A/	.	16a/	.	8ccc\	.
.	.	16F#/JJ	.	16f#/JJ)	.	.	.
8GG/	.	4.G/)	.	(16g/LL	.	8bb\)	.
.	.	.	.	16f#/	.	.	.
16r	.	.	.	16g/	.	16r	.
(16e\LL	.	.	.	16a/	.	(16f#/LL	.
16d\	.	.	.	16b/	.	16g/	.
16c\JJ)	.	.	.	16cc/JJ)	.	16a/JJ)	.
=41	=41	=41	=41	=41	=41	=41	=41
(4.B\	.	4r	.	(4dd\	.	(16g/LL	.
.	.	.	.	.	.	16d/	.
.	.	.	.	.	.	16g/	.
.	.	.	.	.	.	16d/	.
.	.	8r	.	8gg\	.	16g/	.
.	.	.	.	.	.	16d/JJ)	.
4c\)	.	(16e\LL	.	4ff#\	.	(16g/LL	.
.	.	16c\	.	.	.	16d/	.
.	.	16e\	.	.	.	16cc/	.
.	.	16c\	.	.	.	16g/	.
(16c\LL	.	16e\	.	8ee\)	.	16cc/	.
16e\JJ)	.	16c\JJ)	.	.	.	16g/JJ)	.
=42	=42	=42	=42	=42	=42	=42	=42
*clefC4	*clefG2	*	*	*	*	*	*
(16f#\LL	<	(16a\LL	<	[4.ee-\	<	(8cc\L	<
16a\	.	16f#\	.	.	.	.	.
16f#\	.	16a\	.	.	.	8ccc\)	.
16a\	.	16f#\	.	.	.	.	.
16f#\	.	16a\	.	.	.	8ccc\J	.
16a\JJ	.	16f#\JJ	.	.	.	.	.
16f#\LL	.	16a\LL	.	(8ee-\L]	.	(4.ccc\	.
16a\	.	16f#\	.	.	.	.	.
16f#\	.	16a\	.	8dd\)	.	.	.
16a\	.	16f#\	.	.	.	.	.
16f#\	.	16a\	.	8dd\J	.	.	.
16a\JJ)	.	16f#\JJ)	.	.	.	.	.
=43	=43	=43	=43	=43	=43	=43	=43
(4.g\	p	(4.b\	p	(8dd\L	p	[4.bb\)	p
.	.	.	.	16gg\L	.	.	.
.	.	.	.	16ff#\	.	.	.
.	.	.	.	16een\	.	.	.
.	.	.	.	16dd#\JJ)	.	.	.
4.c\)	.	8e\L	.	(8.ee\L	.	(16bb\LL]	.
.	.	.	.	.	.	16gg#\	.
.	.	16cc\L	.	.	.	16aa\	.
.	.	16b\	.	16ddn\L	.	16ccc\)	.
.	.	16a\	.	16cc\	.	16eee'\	.
.	.	16g\JJ)	.	16b\JJ)	.	16eee'\JJ	.
=44	=44	=44	=44	=44	=44	=44	=44
*clefF4	*clefF4	*	*	*	*	*	*
(16d\LL	.	[4.f#\	.	[4.a/	.	(4eee\	.
16F#\	.	.	.	.	.	.	.
16A\	.	.	.	.	.	.	.
16G\	.	.	.	.	.	.	.
16F#\	.	.	.	.	.	[8ddd\)	.
16E\JJ)	.	.	.	.	.	.	.
4.D\	.	(8f#\L]	.	(8a/L]	.	16ddd\LL]	.
.	.	.	.	.	.	(16fff#\	.
.	.	8d\	.	8f#/	.	16aaa\	.
.	.	.	.	.	.	16fff#\	.
.	.	16e\L	.	16g/L	.	16ddd\	.
.	.	16f#\JJ)	.	16a/JJ)	.	16ccc\JJ)	.
=45	=45	=45	=45	=45	=45	=45	=45
4.G\	.	(16g\LL	.	(16b\LL	.	4bb\	.
.	.	16d\	.	16dd\	.	.	.
.	.	16g\	.	16gg\	.	.	.
.	.	16f#\	.	16ff#\	.	.	.
.	.	16e\	.	16ee\	.	[8b\	.
.	.	16d#\JJ	.	16dd#\JJ	.	.	.
(16C/LL	.	16e\LL	.	16ee\LL	.	(16b\LL]	.
16D/	.	16fn\	.	16ffn\	.	16g#\	.
16C/	.	16e\	.	16ee\	.	16a\	.
16BB/	.	16dn\	.	16ddn\	.	16cc\)	.
16AA/	.	16c\	.	16cc\	.	16ee'\	.
16GG/JJ)	.	16B\JJ)	.	16b\JJ)	.	16ee'\JJ	.
=46	=46	=46	=46	=46	=46	=46	=46
(16FF#/LL	.	(16A/LL	.	(16a/LL	.	(4ee\	.
16GG/	.	16B/	.	16b/	.	.	.
16AA/	.	16c/	.	16cc/	.	.	.
16GG/	.	16B/	.	16b/	.	.	.
16FF#/	.	16A/	.	16a/	.	[8dd\)	.
16EE/JJ	.	16G/JJ	.	16g/JJ	.	.	.
16DD/LL)	.	16F#/LL)	.	16f#/LL)	.	(16dd\LL]	.
(16D/	.	(16F#/	.	(16f#/	.	16ff#\	.
16C#/	.	16E/	.	16e/	.	16aa\	.
16D/	.	16F#/	.	16f#/	.	16ff#\	.
16E/	.	16G/	.	16g/	.	16dd\	.
16F#/JJ)	.	16A/JJ)	.	16a/JJ)	.	[16cc\JJ)	.
=47	=47	=47	=47	=47	=47	=47	=47
4.G\	.	4.B/	.	4.d/	.	(16cc\LL]	.
.	.	.	.	.	.	16a#\	.
.	.	.	.	.	.	16cc\	.
.	.	.	.	.	.	16b\)	.
.	.	.	.	.	.	(16aan\	.
.	.	.	.	.	.	16ggn\JJ)	.
[4.C#/	.	[4.A/	.	[4.g/	.	16r	.
.	.	.	.	.	.	(16an\LL	.
.	.	.	.	.	.	16ee\	.
.	.	.	.	.	.	16dd#\	.
.	.	.	.	.	.	16ff#\	.
.	.	.	.	.	.	16ee\JJ)	.
=48	=48	=48	=48	=48	=48	=48	=48
8C#/L]	<	8A/L]	<	8g/L]	<	(8ee\	<
8D/	.	8B/	.	8d/	.	[4g/)	.
8D/J	.	8B/J	.	8d/J	.	.	.
8D/L	.	(8B/L	.	(8d/L	.	(8g/L]	.
8D/	.	8d/)	.	8g/)	.	8b/)	.
8D/J	.	8c'/J	.	8f#'/J	.	8a'/J	.
=49	=49	=49	=49	=49	=49	=49	=49
8.E-/L	f	2.r	.	8.c/L	f	8.f#/L 8.a/	f
16D'/L	.	.	.	16d'/L	.	16f#'/L 16a'/	.
16Cn'/	.	.	.	16e-'/	.	16f#'/ 16a'/	.
16D'/JJ	.	.	.	16d'/JJ	.	16f#'/JJ 16a'/	.
8.E-\L	.	.	.	8.c/L	.	8.f#/L 8.a/	.
16D'\L	.	.	.	16d'/L	.	16f#'/L 16a'/	.
16C'\	.	.	.	16e-'/	.	16f#'/ 16a'/	.
16C'\JJ	.	.	.	16e-'/JJ	.	16f#'/JJ 16a'/	.
=50	=50	=50	=50	=50	=50	=50	=50
2.r	.	8.cc#\L	.	8.en/L	.	8.g/L 8.b-/	.
.	.	16dd'\L	.	16d'/L	.	16g'/L 16b-'/	.
.	.	16ee'\	.	16c#'/	.	16g'/ 16b-'/	.
.	.	16dd'\JJ	.	16d'/JJ	.	16g'/JJ 16b-'/	.
.	.	8.cc#\L	.	8.e/L	.	8.g/L 8.b-/	.
.	.	16dd'\L	.	16d'/L	.	16g'/L 16b-'/	.
.	.	16ee'\	.	16c#'/	.	16g'/ 16b-'/	.
.	.	16ee'\JJ	.	16c#'/JJ	.	16g'/JJ 16b-'/	.
=51	=51	=51	=51	=51	=51	=51	=51
8r	.	(4ee\	>	(4cn/	>	(4f#/ 4a/	>
8r	.	.	.	.	.	.	.
(8FF#/	.	[8dd\	.	8a/	.	8cc\	.
8GG/L	p	8dd\L]	p	8g/L	p	8bn/L	p
8AA/	.	8ccn\	.	8f#/	.	8a/	.
8BB/J	.	8b\J)	.	8d/J	.	8g/J	.
=52	=52	=52	=52	=52	=52	=52	=52
8C/L	.	(16b\LL	.	8c/L	.	8e/L	.
.	.	16a\J)	.	.	.	.	.
8D/	.	[8g'\	.	8B/	.	8d/	.
8E/J)	.	8g'\J]	.	8A/J	.	8c#/J	.
4.D\	.	(4g\	.	4B/	.	4d/	.
.	.	8f#\)	.	8A/)	.	8cn/)	.
=53	=53	=53	=53	=53	=53	=53	=53
8.E-\L	f	8.c\L	f	8.f#/L	f	8.a/L	f
16D'\L	.	16d'\L	.	16f#'/L	.	16a'/L	.
16C'\	.	16d#'\	.	16f#'/	.	16a'/	.
16C'\JJ	.	16d#'\JJ	.	16f#'/JJ	.	16a'/JJ	.
8.BB/L	.	8.d#\L	.	8.f#/L	.	8.a/L	.
16BB'/L	.	16d#'\L	.	16f#'/L	.	16a'/L	.
16BB'/	.	16e'\	.	16e'/	.	16g'/	.
16BB-'/JJ	.	16dn'\JJ	.	16ee'/JJ	.	16gg'/JJ	.
=54	=54	=54	=54	=54	=54	=54	=54
8.AA/L	.	8.c#\L	.	8.ee\L	.	8.gg\L	.
16AA'/L	.	16c#'\L	.	16ee'\L	.	16gg'\L	.
16AA'/	.	16d'\	.	16dd'\	.	16ffn'\	.
16AA-'/JJ	.	16cn'\JJ	.	16dd'\JJ	.	16fffn'\JJ	.
8.GG/L	.	8.B\L	.	8.dd\L	.	8.fff\L	.
16GG'/L	.	16B'\L	.	16dd'\L	.	16fff'\L	.
16CC'/	.	16e'\	.	16cc'\	.	16eee'\	.
16CC#'/JJ	.	16e'\JJ	.	16b-'\JJ 16gg'\	.	16ggg'\JJ	.
=55	=55	=55	=55	=55	=55	=55	=55
8DD/	.	8d'\	.	8bn'\ 8gg'\	.	(4.ggg\	.
8r	.	(8d\L	.	[4d/	>	.	.
8r	.	[8dd\J)	.	.	.	.	.
4r	.	16dd\LL]	>	4.d/]	.	[4.fffn\)	>
.	.	16ee\	.	.	.	.	.
.	.	16dd\	.	.	.	.	.
.	.	16cc\	.	.	.	.	.
8r	.	16b\	.	.	.	.	.
.	.	16a\JJ	.	.	.	.	.
=56	=56	=56	=56	=56	=56	=56	=56
2.r	.	(4.g#\	.	(4.d/	p	(4fff\]	p
.	.	.	.	.	.	[8eee\	.
.	.	4a\	p	4c#/	.	4eee\]	.
.	.	8f#\)	.	8cn/)	.	8eee-\)	.
=57	=57	=57	=57	=57	=57	=57	=57
8r	.	8gn\	.	4B/	.	(16ddd\LL	.
.	.	.	.	.	.	16ccc#\	.
(8DD/L	.	8r	.	.	.	16cccn\	.
.	.	.	.	.	.	16bb\	.
[8D/J)	.	(8Fn/	.	8r	.	16aa\	.
.	.	.	.	.	.	16gg\JJ	.
4.D\_	>	4.d\)	.	8r	.	16ffn\LL	.
.	.	.	.	.	.	16ee\	.
.	.	.	.	(8B/L	.	16dd\	.
.	.	.	.	.	.	16cc\	.
.	.	.	.	[8fn/J)	.	16b\	.
.	.	.	.	.	.	16a\JJ)	.
=58	=58	=58	=58	=58	=58	=58	=58
4D\]	.	4B/	.	4f/]	.	4g#/	.
[8C#/	pp	[8A/	pp	[8e/	pp	[8a/	pp
4C#/]	.	4A/]	.	4e/]	.	4a/]	.
[8Cn/	.	[8A/	.	[8e-/	.	[8f#/	.
=59	=59	=59	=59	=59	=59	=59	=59
8C/]	.	8A/]	.	8e-/]	.	8f#/]	.
[8BB/L	.	[8G/L	.	[8d/L	.	[8gn/L	.
8BB'/J]	.	8G'/J]	.	8d'/J]	.	8g'/J]	.
[8BB/L	.	[8G#/L	.	[8d/L	.	[8fn/L	.
8BB'/J]	.	8G#'/J]	.	8d'/J]	.	8f'/J]	.
[8C/	.	[8A/	.	[8c/	.	[8e/	.
=60	=60	=60	=60	=60	=60	=60	=60
8C/L]	.	8A/L]	.	8c/L]	.	8e/L]	.
[8C#/	.	[8B-/	.	[8e/	.	[8G/ [8g/	.
8C#/J]	.	8B-/J]	.	8e/J]	.	8G/J] 8g/]	.
[8D\L	.	[8Bn/L	.	[8d/L	.	[8G/L [8g/	.
8D\]	.	8B/]	.	8d/]	.	8G/] 8g/]	.
[8E-\J	.	[8B-/J	.	[8c#/J	.	[8G/J [8g/	.
=61	=61	=61	=61	=61	=61	=61	=61
8E-\]	<	8B-/]	<	8c#/]	.	8G/] 8g/]	.
[8En\L	.	[8B-/L	.	[8c#/L	<	[8G/L [8g/	<
8E\J]	.	8B-/J]	.	8c#/J]	.	8G/J] 8g/]	.
[8E\L	.	[8B-/L	.	[8c#/L	.	[8G/L [8g/	.
8E\J]	.	8B-/J]	.	8c#/J]	.	8G/J] 8g/]	.
[8E\	.	[8B-/	.	[8c#/	.	[8G/ [8g/	.
=62	=62	=62	=62	=62	=62	=62	=62
8E\]	.	8B-/]	.	8c#/]	.	8G/] 8g/]	.
[8E-\L	.	[8c#\L	.	[8g/L	.	[8G/L [8b-/	.
8E-\J]	.	8c#\J]	.	8g/J]	.	8G/J] 8b-/]	.
[8E-\L	.	[8c#\L	.	[8g/L	.	[8G/L [8b-/	.
8E-\J]	.	8c#\J]	.	8g/J]	.	8G/J] 8b-/]	.
[8E-\	.	[8c#\	.	[8g/	.	[8G/ [8b-/	.
=63	=63	=63	=63	=63	=63	=63	=63
8E-\]	.	8c#\]	.	8g/]	.	8G/] 8b-/]	.
[8D\L	.	[8d\L	.	[8g/L [8b/	.	[8dd\L	.
8D\J]	.	8d\J]	.	8g/J] 8b/]	.	8dd\J]	.
[8D\L	.	[8d\L	.	[8g/L [8b/	.	[8dd\L	.
8D\J]	.	8d\J]	.	8g/J] 8b/]	.	8dd\J]	.
[8D\	.	[8d\	.	[8g/ [8b/	.	[8dd\	.
=64	=64	=64	=64	=64	=64	=64	=64
8D\]	.	8d\]	.	8g/] 8b/]	.	8dd\]	.
[8DD/L	f	[8d\L [8a\	f	[8cc\L [8ff#\	f	[8dd\L [8ddd\	f
8DD/J]	.	8d\J] 8a\]	.	8cc\J] 8ff#\]	.	8dd\J] 8ddd\]	.
[8DD/L	.	[8d\L [8a\	.	[8cc\L [8ff#\	.	[8dd\L [8ddd\	.
8DD/J]	.	8d\J] 8a\]	.	8cc\J] 8ff#\]	.	8dd\J] 8ddd\]	.
8DD'/	.	8d'\ 8a'\	.	8cc'\ 8ff#'\	.	8dd'\ 8ddd'\	.
=65	=65	=65	=65	=65	=65	=65	=65
16GG/LL	.	16B/LL	.	2.r	.	(16ddd\LL	.
(16DD/	.	(16d/	.	.	.	16bbn\)	.
16GG/)	.	16B/)	.	.	.	16gg'\	.
(16DD/	.	(16d/	.	.	.	16dd'\	.
16GG/)	.	16B/)	.	.	.	16b'\	.
(16DD/JJ	.	(16d/JJ	.	.	.	16g'\JJ	.
16GG/LL)	.	16B\LL)	.	.	.	4.d/	.
(16DD/	.	(16d\	.	.	.	.	.
16GG/)	.	16B\)	.	.	.	.	.
(16DD/	.	(16d\	.	.	.	.	.
16GG/)	.	16B\)	.	.	.	.	.
(16DD/JJ	.	(16d\JJ	.	.	.	.	.
=66	=66	=66	=66	=66	=66	=66	=66
16FF#/LL)	.	16c\LL)	.	2.r	.	(16ddd\LL	.
(16DD/	.	(16d\	.	.	.	16ccc\)	.
16FF#/)	.	16c\)	.	.	.	16aa'\	.
(16DD/	.	(16d\	.	.	.	16dd'\	.
16FF#/)	.	16c\)	.	.	.	16cc'\	.
(16DD/JJ	.	(16d\JJ	.	.	.	16a'\JJ	.
16FF#/LL)	.	16c\LL)	.	.	.	4.d/	.
(16DD/	.	(16d\	.	.	.	.	.
16FF#/)	.	16c\)	.	.	.	.	.
(16DD/	.	(16d\	.	.	.	.	.
16FF#/)	.	16c\)	.	.	.	.	.
(16DD/JJ	.	16d\JJ	.	.	.	.	.
=67	=67	=67	=67	=67	=67	=67	=67
16GG/LL)	.	(16dd\LL	.	16B/LL	.	4r	.
(16DD/	.	16b\)	.	(16d/	.	.	.
16GG/)	.	16g'\	.	16B/)	.	.	.
(16DD/	.	16d'\	.	(16d/	.	.	.
16GG/)	.	16B'\	.	16B/)	.	8r	.
(16DD/JJ	.	16G'\JJ	.	(16d/JJ	.	.	.
16GG/LL)	.	4.D/	.	16B/LL)	.	(16ddd\LL	.
(16DD/	.	.	.	(16d/	.	16bb\)	.
16GG/)	.	.	.	16B/)	.	16gg'\	.
(16DD/	.	.	.	(16d/	.	16dd'\	.
16GG/)	.	.	.	16B/)	.	16b'\	.
(16DD/JJ	.	.	.	(16d/JJ	.	16g'\JJ	.
=68	=68	=68	=68	=68	=68	=68	=68
16FF#/LL)	.	(16dd\LL	.	16c/LL)	.	4.d/	.
(16DD/	.	16cc\)	.	(16d/	.	.	.
16FF#/)	.	16a'\	.	16c/)	.	.	.
(16DD/	.	16d'\	.	(16d/	.	.	.
16FF#/)	.	16c'\	.	16c/)	.	.	.
(16DD/JJ	.	16A'\JJ	.	(16d/JJ	.	.	.
16FF#/LL)	.	4.D/	.	16c/LL)	.	(16ddd\LL	.
(16DD/	.	.	.	(16d/	.	16ccc\)	.
16FF#/)	.	.	.	16c/)	.	16aa'\	.
(16DD/	.	.	.	(16d/	.	16dd'\	.
16FF#/)	.	.	.	16c/)	.	16cc'\	.
16DD/JJ	.	.	.	(16d/JJ	.	16a'\JJ	.
=69	=69	=69	=69	=69	=69	=69	=69
*>A1	*>A1	*>A1	*>A1	*>A1	*>A1	*>A1	*>A1
(16d\LL	.	16G'/LL	.	16B/LL)	.	4g/	.
16B\)	.	(16B/	.	(16d/	.	.	.
16G'\	.	16G/)	.	16B/)	.	.	.
16D'\JJ	.	(16B/	.	(16d/	.	.	.
16BB'/LL	.	16G/)	.	16B/)	.	8r	.
16GG'/JJ	.	(16B/JJ	.	(16d/JJ	.	.	.
4FF#/	.	16A/LL)	.	16B/LL)	.	(16aa\LL	.
.	.	(16B/	.	(16d#/	.	16ff#\)	.
.	.	16A/)	.	16B/)	.	16dd#'\	.
.	.	(16B/	.	(16d#/	.	16b'\	.
8BB/	.	16A/)	.	16B/)	.	16a'\	.
.	.	16B/JJ	.	16d#/JJ	.	16f#'\JJ	.
=70	=70	=70	=70	=70	=70	=70	=70
4E'\	f	4G'/	f	4G'/ 4e'/	f	4e'/ 4b'/ 4ee'/	f
8r	.	8r	.	8r	.	8r	.
4D#'\	.	4F#'/ 4B'/	.	4B'/ 4f#'/ 4b'/	.	4b'\ 4bb'\	.
8r	.	8r	.	8r	.	8r	.
=71:|!	=71:|!	=71:|!	=71:|!	=71:|!	=71:|!	=71:|!	=71:|!
*>A2	*>A2	*>A2	*>A2	*>A2	*>A2	*>A2	*>A2
(16dn\LL	.	16G/LL	.	16B-/LL	.	4g/	.
16B-\)	.	(16B-/	.	(16dn/	.	.	.
16G'\	.	16G/)	.	16B-/)	.	.	.
16D'\JJ	.	(16B-/	.	(16d/	.	.	.
16BB-'/LL	.	16G/)	.	16B-/)	.	8r	.
16GG'/JJ	.	(16B-/JJ	.	(16d/JJ	.	.	.
4FFn/	.	16A-/LL)	.	16B-/LL)	.	(16aa-\LL	.
.	.	(16B-/	.	(16d/	.	16ffn\)	.
.	.	16A-/)	.	16B-/)	.	16dd'\	.
.	.	(16B-/	.	(16d/	.	16b-'\	.
8BB-/	.	16A-/)	.	16B-/)	.	16a-'\	.
.	.	16B-/JJ	.	16d/JJ	.	16fn'\JJ	.
=72	=72	=72	=72	=72	=72	=72	=72
4EE-'/	ff	4E-'/	ff	4G'/ 4e-'/	ff	4G'/ 4e-'/ 4ee-'/	ff
8r	.	8r	.	8r	.	8r	.
4DD'/	.	4D'/	.	4B-'/ 4fn'/	.	4b-'\ 4bb-'\	.
8r	.	8r	.	8r	.	8r	.
=73	=73	=73	=73	=73	=73	=73	=73
2.r	.	2.r	.	2.r	.	2.r	.
=74!|:	=74!|:	=74!|:	=74!|:	=74!|:	=74!|:	=74!|:	=74!|:
*>B	*>B	*>B	*>B	*>B	*>B	*>B	*>B
4E-'\	p	4G-'/	p	4B-'/	p	4e-'/	p
8r	.	8r	.	8r	.	8r	.
4D'\	.	4Fn'/	.	4B-'/	.	4b-'\	.
8r	.	8r	.	8r	.	8r	.
=75	=75	=75	=75	=75	=75	=75	=75
2.r	.	2.r	.	2.r	.	2.r	.
=76	=76	=76	=76	=76	=76	=76	=76
4D#'\	pp	4F#'/	pp	4B-'/	pp	4d#'/	pp
8r	.	8r	.	8r	.	8r	.
4C#'/	.	4c#'\	.	4e'/	.	4a#'/	.
8r	.	8r	.	8r	.	8r	.
=77	=77	=77	=77	=77	=77	=77	=77
2.r	.	2.r	.	2.r	.	2.r	.
=78	=78	=78	=78	=78	=78	=78	=78
4BB'/	ff	4F#'/	ff	4d'/	ff	4dn'/ 4b'/	ff
8r	.	8r	.	8r	.	8r	.
*	*	*	*	*	*	*^	*
4AA#'/	.	4F#'/	.	4c#'/ 4f#'/	.	[4.ff#/	8f#\ 8cc#\	.
.	.	.	.	.	.	.	8r	.
8r	.	8r	.	8r	.	.	8r	>
*	*	*	*	*	*	*v	*v	*
=79	=79	=79	=79	=79	=79	=79	=79
2.r	.	2.r	.	2.r	.	2.ff#\_	.
=80	=80	=80	=80	=80	=80	=80	=80
(8BB/L	pp	4r	.	4r	.	2.ff#\_	pp
8FF#/	.	.	.	.	.	.	.
8D/J	.	8r	.	8r	.	.	.
[4.F#\)	.	4r	.	4r	.	.	.
.	.	(8B/	pp	(8d/	pp	.	.
=81	=81	=81	=81	=81	=81	=81	=81
(4.F#\]	.	4A#/	.	4c#/	.	(16ff#\LL]	.
.	.	.	.	.	.	16gg\	.
.	.	.	.	.	.	16ee\	.
.	.	.	.	.	.	16cc#\	.
.	.	8c#/	.	8e/	.	16a#\	.
.	.	.	.	.	.	16f#\JJ	.
4G\)	.	4B/)	.	4d/)	.	4b\)	.
8r	.	8r	.	8r	.	8r	.
=82	=82	=82	=82	=82	=82	=82	=82
2.r	.	2.r	.	2.r	.	2.r	.
=83	=83	=83	=83	=83	=83	=83	=83
(8C/L	.	4r	.	4r	.	4r	.
8GG/	.	.	.	.	.	.	.
8E-/J	.	8r	.	8r	.	8r	.
[4.G\)	.	4r	.	4r	.	4r	.
.	.	(8cn\	.	(8e-/	.	[8gg\	.
=84	=84	=84	=84	=84	=84	=84	=84
(4.G\]	.	4B/	.	4d/	.	(16gg\LL]	.
.	.	.	.	.	.	16aa-\	.
.	.	.	.	.	.	16ffn\	.
.	.	.	.	.	.	16dd\	.
.	.	8d\	.	8fn/	.	16b\	.
.	.	.	.	.	.	16g\JJ	.
[4.A-\)	.	[4.c\)	.	[4.e-/)	.	[4.cc\)	.
=85	=85	=85	=85	=85	=85	=85	=85
4.A-\]	.	2.c\_	.	[2.A-/ 2.e-/_	.	(8cc\L]	.
.	.	.	.	.	.	8a-\	.
.	.	.	.	.	.	8ee-\J)	.
(8AA-/L	.	.	.	.	.	[4.aa-\	.
8EE-/	.	.	.	.	.	.	.
8C/J)	.	.	.	.	.	.	.
=86	=86	=86	=86	=86	=86	=86	=86
[4.E-\	.	(4.c\]	.	4.A-/] 4.e-/_	.	(16aa-\LL]	.
.	.	.	.	.	.	16ee-\	.
.	.	.	.	.	.	16cc\	.
.	.	.	.	.	.	16a-\JJ	.
.	.	.	.	.	.	16e-/LL	.
.	.	.	.	.	.	16c/JJ)	.
8E-\L]	.	[4.B-/)	.	4.G/ 4.e-/_	.	(8e-/L	.
(16F#\L	.	.	.	.	.	8d-/)	.
16D-\	.	.	.	.	.	.	.
16BB-\	.	.	.	.	.	8d-'/J	.
16GG\JJ)	.	.	.	.	.	.	.
=87	=87	=87	=87	=87	=87	=87	=87
(8FFn/L	.	2.B-/_	.	[2.G/ 2.e-/_	.	8dd-\L	.
8EE-/)	.	.	.	.	.	8b-\	.
8EE-'/J	.	.	.	.	.	8gg\J	.
(8BB-/L	.	.	.	.	.	[4.bb-\	.
8EE-/	.	.	.	.	.	.	.
8D-/J)	.	.	.	.	.	.	.
=88	=88	=88	=88	=88	=88	=88	=88
[4.E-\	.	4.B-/]	.	4.G/] 4.e-/_	.	16bb-\LL]	.
.	.	.	.	.	.	(16gg\	.
.	.	.	.	.	.	16dd-\	.
.	.	.	.	.	.	16b-\	.
.	.	.	.	.	.	16g\	.
.	.	.	.	.	.	16e-\JJ)	.
8E-\L]	.	[4.c\	.	[4.A-/ 4.e-/_	.	(8d-/L	.
(16c\L	.	.	.	.	.	8c/)	.
16A-\	.	.	.	.	.	.	.
16E-\	.	.	.	.	.	8c'/J	.
16C\JJ)	.	.	.	.	.	.	.
=89	=89	=89	=89	=89	=89	=89	=89
(8BB-/L	.	4.c\]	.	4.A-/] 4.e-/]	.	(8cc\L	.
8AA-/)	.	.	.	.	.	8a-\	.
8AA-'/J	.	.	.	.	.	[8ee-\J)	.
(8AA-/L	.	(8A-/L	.	(8c/L	.	(8ee-\L]	.
8GG-/)	.	8E-/	.	8A-/	.	8cc\	.
8GG-'/J	.	[8c/J)	.	[8e-/J)	.	[8gg-\J)	.
=90	=90	=90	=90	=90	=90	=90	=90
(8GG-/L	.	(8c\L]	.	(8e-/L]	.	8gg-\L]	.
8FFn/)	.	8An\	.	8c/	.	(16gg-\L	.
.	.	.	.	.	.	16ee-\	.
8FF'/J	.	8e-\J)	.	8g-/J)	.	16cc\	.
.	.	.	.	.	.	16b-\JJ)	.
[8FF/L	.	(8c\L	.	(8e-/L	.	8an'\L	.
8FF/]	.	8A\	.	8c/	.	(16gg-\L	.
.	.	.	.	.	.	16ee-\	.
8FF'/J	.	8e-\J)	.	8fn/J)	.	16cc\	.
.	.	.	.	.	.	16a\JJ)	.
=91	=91	=91	=91	=91	=91	=91	=91
[2.FFn/	.	4r	.	(8d-/L	.	8b-'\L	.
.	.	.	.	8B-/	.	(16bb-\L	.
.	.	.	.	.	.	16ffn\	.
.	.	8r	.	8fn/J	.	16dd-\	.
.	.	.	.	.	.	16b-\JJ)	.
.	.	(8c/L	.	4g-/	.	8a'\L	.
.	.	8Fn/	.	.	.	(16gg-\L	.
.	.	.	.	.	.	16ee-\	.
.	.	8e-/J)	.	8f/)	.	16cc\	.
.	.	.	.	.	.	16a\JJ)	.
=92	=92	=92	=92	=92	=92	=92	=92
2.FF/_	.	4r	.	(8d-/L	.	(16b-\LL	.
.	.	.	.	.	.	16ffn\	.
.	.	.	.	8B-/	.	16bb-\	.
.	.	.	.	.	.	16ff\	.
.	.	(8d-\	.	8fn/J	.	16dd-\	.
.	.	.	.	.	.	16b-\JJ)	.
.	.	8c\L	.	4g-/	.	(16a\LL	.
.	.	.	.	.	.	16ee-\	.
.	.	8Fn\	.	.	.	16gg-\	.
.	.	.	.	.	.	16ee-\	.
.	.	8e-\J)	.	8f/)	.	16cc\	.
.	.	.	.	.	.	16a\JJ)	.
=93	=93	=93	=93	=93	=93	=93	=93
8FF/L]	pp	8d-\L	pp	8r	pp	8b-\	pp
8r	.	8r	.	4b-\	.	4dd-\	.
8FFn/J	.	8Fn/J	.	.	.	.	.
8r	.	8r	.	4b-\	.	4dd-\	.
8FF/	.	8F/	.	.	.	.	.
8r	.	8r	.	[8b-\	.	[8dd-\	.
=94	=94	=94	=94	=94	=94	=94	=94
8FFn/L	.	8Fn/L	.	8b-\]	.	8dd-\]	.
8r	.	8r	.	4b-\	.	4dd-\	.
8FF/J	.	8F/J	.	.	.	.	.
8r	.	8r	.	4b-\	.	4dd-\	.
8FF/	.	8F/	.	.	.	.	.
8r	.	8r	.	[8b-\	.	[8dd-\	.
=95	=95	=95	=95	=95	=95	=95	=95
8GG-/L	<	8G-/L	<	8b-\]	<	8dd-\]	<
8r	.	8r	.	4b-\	.	4dd-\	.
8GG-/J	.	8G-/J	.	.	.	.	.
8r	.	8r	.	4b-\	.	4dd-\	.
8GG-/	.	8G-/	.	.	.	.	.
8r	.	8r	.	[8b-\	.	[8dd-\	.
=96	=96	=96	=96	=96	=96	=96	=96
8GG-/L	.	8G-/L	.	8b-\]	.	8dd-\]	.
8r	.	8r	.	4b-\	.	4dd-\	.
8GG-/J	.	8G-/J	.	.	.	.	.
8r	.	8r	.	4b-\	.	4dd-\	.
4GG-/	.	8G-/	.	.	.	.	.
.	.	8r	.	[8b-\	.	[8dd-\	.
=97	=97	=97	=97	=97	=97	=97	=97
8F#\L	.	8gn\	.	8b-\]	.	8dd-\]	.
8r	.	4g\	.	4b-\	.	4cc#\ 4ee\	.
8F#\J	.	.	.	.	.	.	.
8r	.	4g\	.	4b-\	.	4cc#\ 4ee\	.
4F#\	.	.	.	.	.	.	.
.	.	[8g\	.	[8b-\	.	[8cc#\ [8ee\	.
=98	=98	=98	=98	=98	=98	=98	=98
8F#\L	.	8g\]	.	8b-\]	.	8cc#\] 8ee\]	.
8r	.	4e\	f	4gg\	f	4cc#\ 4aa#\	f
8F#\J	f	.	.	.	.	.	.
8r	.	4e\	.	4gg\	.	4cc#\ 4aa#\	.
8F#\	.	.	.	.	.	.	.
8r	.	8e\	.	8ff#\	.	8cc#\ 8aa#\	.
=99	=99	=99	=99	=99	=99	=99	=99
[2.F#\	.	4d\	.	8ff#\	p	8ddn\L 8bb\	.
.	.	.	.	(8Bn/L	.	(16bb\L	p
.	.	.	.	.	.	16ff#\	.
.	.	8r	p	8f#/J	.	16dd\	.
.	.	.	.	.	.	16b\JJ)	.
.	.	(8c#\L	.	4g/	.	8a#\L	.
.	.	8F#\	.	.	.	(16gg\L	.
.	.	.	.	.	.	16ee\	.
.	.	8e\J)	.	8f#/)	.	16cc#\	.
.	.	.	.	.	.	16a#\JJ)	.
=100	=100	=100	=100	=100	=100	=100	=100
2.F#\]	p	8r	.	(8d/L	.	(16b\LL	.
.	.	.	.	.	.	16ff#\	.
.	.	8r	.	8B/	.	16bb\	.
.	.	.	.	.	.	16ff#\	.
.	.	(8d\	.	8f#/J	.	16dd\	.
.	.	.	.	.	.	16b\JJ)	.
.	.	8c#\L	.	4g/	.	(16a#\LL	.
.	.	.	.	.	.	16ee\	.
.	.	8F#\	.	.	.	16gg\	.
.	.	.	.	.	.	16ee\	.
.	.	8e\J)	.	8f#/)	.	16cc#\	.
.	.	.	.	.	.	16a#\JJ)	.
=101	=101	=101	=101	=101	=101	=101	=101
8F#\L	pp	8d\L	pp	8f#/	pp	8b\	pp
8r	.	8r	.	4b\	.	4dd\	.
8F#\J	.	8f#\J	.	.	.	.	.
8r	.	8r	.	4b\	.	4dd\	.
8F#\	.	8f#\	.	.	.	.	.
8r	.	8r	.	[8b\	.	[8dd\	.
=102	=102	=102	=102	=102	=102	=102	=102
8F#\L	.	8f#\L	.	8b\]	.	8dd\]	.
8r	.	8r	.	4b\	.	4dd\	.
8F#\J	.	8f#\J	.	.	.	.	.
8r	.	8r	.	4b\	.	4dd\	.
8F#\	.	8f#\	.	.	.	.	.
8r	.	8r	.	(8b\	.	[8dd\	.
=103	=103	=103	=103	=103	=103	=103	=103
8F#\L	.	8a\	.	8cc\)	.	8dd\]	.
8r	<	4a\	<	4cc\	<	4dd\	<
8F#\J	.	.	.	.	.	.	.
8r	.	4a\	.	4cc\	.	4dd\	.
8F#\	.	.	.	.	.	.	.
8r	.	[8a\	.	[8cc\	.	[8dd\	.
=104	=104	=104	=104	=104	=104	=104	=104
8F#\L	.	8a\]	.	8cc\]	.	8dd\]	.
8r	.	4a\	.	4cc\	.	4dd\	.
8F#\J	.	.	.	.	.	.	.
8r	.	4a\	.	4cc\	.	4dd\	.
8F#\	.	.	.	.	.	.	.
8r	.	(8a\	.	(8cc\	.	[8dd\	.
=105	=105	=105	=105	=105	=105	=105	=105
8Fn\L	.	8g\)	.	8b\)	.	8dd\]	.
8r	.	4g\	.	4b\	.	4dd\	.
8F\J	.	.	.	.	.	.	.
8r	.	4g\	.	4b\	.	4dd\	.
8F\	.	.	.	.	.	.	.
8r	.	(8g\	.	[8b\	.	[8dd\	.
=106	=106	=106	=106	=106	=106	=106	=106
8D\L	.	8d\) 8fn\	.	8g/ 8b/]	.	8dd\]	.
8r	.	4d\ 4f\	.	4g/ 4b/	.	4ffn\	.
8D\J	.	.	.	.	.	.	.
8r	.	4d\ 4f\	.	4g/ 4b/	.	4ff\	.
8D\	.	.	.	.	.	.	.
8r	.	[8d\ [8f\	.	([8g/ 8b/	.	[8ff\	.
=107	=107	=107	=107	=107	=107	=107	=107
8BB/L	.	8d\] 8f\]	.	8g\]) 8dd\	.	8ff\]	.
8r	f	4d\ 4fn\	f	4g\ 4dd\	f	4ffn\	f
8BB/J	.	.	.	.	.	.	.
8r	.	4d\ 4f\	.	4g\ 4dd\	.	4ffn\	.
8BB/	.	.	.	.	.	.	.
8r	.	8d\ 8f\	.	8g\ 8dd\	.	[8ffn\	.
=108	=108	=108	=108	=108	=108	=108	=108
8GG/L	.	8G/ 8d/	.	8B/	.	8ff\]	.
8r	f	4G/ 4d/	f	4ffn\	f	4bb\	f
8GG/J	.	.	.	.	.	.	.
8r	.	4G/ 4d/	.	4ff\	.	4bb\	.
8GG/	.	.	.	.	.	.	.
8r	.	8G/ 8d/	.	8ff\	.	8bb\	.
=109	=109	=109	=109	=109	=109	=109	=109
4CC'/	ff	4C'/ 4c'/	ff	16ee\LL	ff	16ccc\LL	ff
.	.	.	.	16dd\	.	16bb\	.
.	.	.	.	16ee\	.	16ccc\	.
.	.	.	.	16gg\	.	16eee\	.
8r	.	8r	.	16ffn\	.	16ddd\	.
.	.	.	.	16ee\JJ	.	16ccc\JJ	.
4GG'/	.	8G'\ 8g'\	.	16dd\LL	.	16bb\LL	.
.	.	.	.	16ee\	.	16ccc\	.
.	.	16r	.	16dd\	.	16bb\	.
.	.	16ee\LL	.	16cc\	.	16aa\	.
8r	.	16dd\	.	16b\	.	16gg\	.
.	.	16ee\JJ	.	16cc\JJ	.	16aa\JJ	.
=110	=110	=110	=110	=110	=110	=110	=110
2.r	.	16dd\LL	ff	16b/LL	ff	16gg\LL	ff
.	.	16cc\	.	16a/	.	16ffn\	.
.	.	16b\	.	16g/	.	16ee\	.
.	.	16cc\	.	16a/	.	16ff\	.
.	.	16b\	.	16g/	.	16ee\	.
.	.	16a\JJ	.	16fn/JJ	.	16dd\JJ	.
.	.	16g\LL	.	16e/LL	.	16cc\LL	.
.	.	16a\	.	16f/	.	16dd\	.
.	.	16g\	.	16e/	.	16cc\	.
.	.	16fn\	.	16d/	.	16b\	.
.	.	16e\	.	16c/	.	16a\	.
.	.	16f\JJ	.	16d/JJ	.	16b\JJ	.
=111	=111	=111	=111	=111	=111	=111	=111
16c\LL	.	16e\LL	.	4c'/	.	4cc'\	.
16B\	.	16d\	.	.	.	.	.
16c\	.	16e\	.	.	.	.	.
16e\	ff	16g\	.	.	.	.	.
16d\	.	16fn\	.	8r	.	8r	.
16c\JJ	.	16e\JJ	.	.	.	.	.
16B\LL	.	16d\LL	.	4g'/	.	4gg'\	.
16c\	.	16e\	.	.	.	.	.
16d\	.	16f\	.	.	.	.	.
16c\	.	16e\	.	.	.	.	.
16B\	.	16d\	.	8r	.	8r	.
16c\JJ	.	16e\JJ	.	.	.	.	.
=112	=112	=112	=112	=112	=112	=112	=112
16B\LL	.	16d/LL	.	2.r	.	4r	.
16A\	.	16c/	.	.	.	.	.
16G\	.	16B/	.	.	.	.	.
16A\	.	16c/	.	.	.	.	.
16G\	.	16B/	.	.	.	8r	.
16Fn\JJ	.	16A/JJ	.	.	.	.	.
16E\LL	.	16G/LL	.	.	.	4r	.
16F\	.	16A/	.	.	.	.	.
16E\	.	16G/	.	.	.	.	.
16D\	.	16Fn/	.	.	.	.	.
16C\	.	16E/	.	.	.	8gg#\	.
16BB\JJ	.	16D/JJ	.	.	.	.	.
=113	=113	=113	=113	=113	=113	=113	=113
4AA'/	.	4C'/ 4A'/	.	16cc\LL	.	16aa\LL	.
.	.	.	.	16b\	.	16gg#\	.
.	.	.	.	16cc\	.	16aa\	.
.	.	.	.	16ee\	.	16ccc\	.
8r	.	8r	.	16dd\	.	16bb\	.
.	.	.	.	16cc\JJ	.	16aa\JJ	.
4E'\	.	8e'\	.	16b/LL	.	16gg#\LL	.
.	.	.	.	16cc/	.	16aa\	.
.	.	16r	.	16b/	.	16gg#\	.
.	.	16cc\LL	.	16a/	.	16ffn\	.
8r	.	16b\	.	16g#/	.	16ee\	.
.	.	16cc\JJ	.	16a/JJ	.	16ff\JJ	.
=114	=114	=114	=114	=114	=114	=114	=114
2.r	.	16b\LL	.	16gn/LL	.	16ee\LL	.
.	.	16a\	.	16f#/	.	16dd\	.
.	.	16g\	.	16e/	.	16cc\	.
.	.	16a\	.	16f#/	.	16dd\	.
.	.	16g\	.	16e/	.	16cc\	.
.	.	16fn\JJ	.	16d/JJ	.	16b\JJ	.
.	.	16e\LL	.	16c/LL	.	16a/LL	.
.	.	16f\	.	16d/	.	16b/	.
.	.	16e\	.	16c/	.	16a/	.
.	.	16d\	.	16B/	.	16g#/	.
.	.	16c\	.	16A/	.	16f#/	.
.	.	16d\JJ	.	16B/JJ	.	16g#/JJ	.
=115	=115	=115	=115	=115	=115	=115	=115
16A\LL	.	16c\LL	.	4A'/	.	4a'/	.
16G#\	.	16B\	.	.	.	.	.
16A\	.	16c\	.	.	.	.	.
16c\	.	16e\	.	.	.	.	.
16B\	.	16d\	.	8r	.	8r	.
16A\JJ	.	16c\JJ	.	.	.	.	.
16G#\LL	.	16B/LL	.	4e'/	.	4ee'\	.
16A\	.	16c/	.	.	.	.	.
16G#\	.	16B/	.	.	.	.	.
16Fn\	.	16A/	.	.	.	.	.
16E\	.	16G#/	.	8r	.	8r	.
16F\JJ	.	16A/JJ	.	.	.	.	.
=116	=116	=116	=116	=116	=116	=116	=116
16E/LL	.	16Gn/LL	.	2.r	.	2.r	.
16D/	.	16Fn/	.	.	.	.	.
16C/	.	16E/	.	.	.	.	.
16D/	.	16F/	.	.	.	.	.
16C/	.	16E/	.	.	.	.	.
16BB/JJ	.	16D/JJ	.	.	.	.	.
16AA/LL	.	16C/LL	.	.	.	.	.
16BB/	.	16D/	.	.	.	.	.
16C/	.	16E/	.	.	.	.	.
16BB/	.	16D/	.	.	.	.	.
16AA/	.	16C/	.	.	.	.	.
16BB/JJ	.	16D/JJ	.	.	.	.	.
=117	=117	=117	=117	=117	=117	=117	=117
[2.AA/	pp	(4.C/	pp	4r	.	8.r	.
.	.	.	.	.	.	(16a\LL	pp
.	.	.	.	(8e/	pp	16cc\	.
.	.	.	.	.	.	16a\JJ	.
.	.	4D/	.	8.fn/L	.	[4.g#/)	.
.	.	.	.	16B/L	.	.	.
.	.	8Fn/)	.	16d/	.	.	.
.	.	.	.	16c/JJ)	.	.	.
=118	=118	=118	=118	=118	=118	=118	=118
2.AA/]	.	(4E/	.	(4c/	.	(16g#/LL]	.
.	.	.	.	.	.	16a/	.
.	.	.	.	.	.	16b/	.
.	.	.	.	.	.	16a/	.
.	.	8C/	.	8e/	.	16cc/	.
.	.	.	.	.	.	16a/JJ	.
.	.	4D/	.	8.fn/L	.	4.g#/)	.
.	.	.	.	16B/L	.	.	.
.	.	16Fn/LL	.	16d/	.	.	.
.	.	16E/JJ)	.	16c/JJ)	.	.	.
=119	=119	=119	=119	=119	=119	=119	=119
4AA/	.	4E/	.	4c/	.	(16a/LL	.
.	.	.	.	.	.	16g#/	.
.	.	.	.	.	.	16a/	.
.	.	.	.	.	.	16b/	.
8r	.	8r	.	8r	.	16cc/	.
.	.	.	.	.	.	16e/JJ	.
4DD/	.	8A/	.	8d/	.	16fn/LL	.
.	.	.	.	.	.	16gn/	.
.	.	16r	.	8r	.	16a/JJ)	.
.	.	(16c#\LL	.	.	.	16r	.
8r	.	16d\	.	8r	.	8r	.
.	.	16e\JJ	.	.	.	.	.
=120	=120	=120	=120	=120	=120	=120	=120
2.r	.	16fn\LL	p	2.r	.	16r	.
.	.	16A\	.	.	.	(16a\LL	.
.	.	16B-\	.	.	.	16b-\	.
.	.	16cn\	.	.	.	16cc\	.
.	.	16d\	.	.	.	16dd\	p
.	.	16Fn\JJ	.	.	.	16fn\JJ	.
.	.	16G\LL	.	.	.	16g\LL	.
.	.	16A\	.	.	.	16a\	.
.	.	16B-\	.	.	.	16b-\	.
.	.	16c\	.	.	.	16cc\	.
.	.	16d\	.	.	.	16dd\	.
.	.	16e-\JJ	.	.	.	16ee-\JJ	.
=121	=121	=121	=121	=121	=121	=121	=121
2.r	.	16fn\LL	.	2.r	.	16ffn\LL	.
.	.	16en\	.	.	.	16een\	.
.	.	16g\	.	.	.	16gg\	.
.	.	16f\	.	.	.	16ff\	.
.	.	16e-\	.	.	.	16ee-\	.
.	.	16d\JJ	.	.	.	16dd\JJ	.
.	.	16c\LL	.	.	.	16cc\LL	.
.	.	16B-\	.	.	.	16b-\	.
.	.	16A\	.	.	.	16a\	.
.	.	16B-\	.	.	.	16b-\	.
.	.	16d\	.	.	.	16dd\	.
.	.	16fn\JJ)	.	.	.	16ff\JJ)	.
=122	=122	=122	=122	=122	=122	=122	=122
8r	.	(8fn\	.	8r	.	(8ffn\	.
8D#\L	.	[4c\)	.	8f#/L	.	[4a/)	.
8D#\J	.	.	.	8f#/J	.	.	.
(8E\L	.	(8c\L]	.	(8e/L	.	(8a/L]	.
8E\	.	8en\	.	8a/	.	8cc/	.
8E\J)	.	8e\J)	.	8g#/J)	.	8bn/J)	.
=123	=123	=123	=123	=123	=123	=123	=123
8.A\L	<	(4e\	.	(4a/	<	(4.cc\	.
(16A\L	<	.	.	.	.	.	.
16c\	.	8d#\	.	8f#/	.	.	.
16A\JJ)	.	.	.	.	.	.	.
[4.G#\	>	4.dn\)	>	4fn/	>	4.b\)	.
.	.	.	.	8e/)	.	.	.
=124	=124	=124	=124	=124	=124	=124	=124
(16G#\LL]	<	(4c\	<	(4e/	<	[4.cc\	<
16A\	.	.	.	.	.	.	.
16B\	.	.	.	.	.	.	.
16A\	.	.	.	.	.	.	.
16c\	.	8d#\	.	8f#/	.	.	.
16A\JJ)	>	.	.	.	.	.	.
[4.G#\	.	4.dn\)	>	4fn/	>	(16cc\LL]	>
.	.	.	.	.	.	16b\	.
.	.	.	.	.	.	16cc\	.
.	.	.	.	.	.	16b\	.
.	.	.	.	8e/)	.	16dd\	.
.	.	.	.	.	.	16b\JJ	.
=125	=125	=125	=125	=125	=125	=125	=125
(16G#\LL]	.	4c\	.	4e/	.	4cc\)	.
16G#\	.	.	.	.	.	.	.
16A\	.	.	.	.	.	.	.
16B\	.	.	.	.	.	.	.
16c\	.	8r	.	8r	.	8r	.
16E\JJ	.	.	.	.	.	.	.
16Fn\LL	.	8.r	.	4r	.	4r	.
16Gn\	.	.	.	.	.	.	.
16A\	.	.	.	.	.	.	.
16C#\	.	(16c#\LL	.	.	.	.	.
16D\	.	16d\	.	8r	.	8r	.
16E\JJ	.	16e\JJ	.	.	.	.	.
=126	=126	=126	=126	=126	=126	=126	=126
16Fn/LL	.	16fn/LL)	.	4r	.	4r	.
16AA/	.	(16A/	.	.	.	.	.
16BB-/	.	16B-/	.	.	.	.	.
16Cn/	.	16cn/	.	.	.	.	.
16D/	.	16d/	.	16r	.	8r	.
16FFn/JJ	.	16Fn/JJ	.	(16fn/	.	.	.
16GG/LL	.	16G/LL	.	16g/LL	.	8.r	.
16AA/	.	16A/	.	16a/	.	.	.
16BB-/	.	16B-/	.	16b-/	.	.	.
16FF/	.	16F/	.	16fn/	.	(16ffn\LL	.
16GG/	.	16G/	.	16g/	.	16gg\	.
16AA/JJ	.	16A/JJ	.	16a/JJ	.	16aa\JJ	.
=127	=127	=127	=127	=127	=127	=127	=127
16BB-/LL	<	16B-/LL	<	16b-/LL	<	16bb-\LL	<
16FFn/	.	16Fn/	.	16fn/	.	16ffn\	.
16GG/	.	16G/	.	16g/	.	16gg\	.
16AA/	.	16A/	.	16a/	.	16aa\	.
16BB-/	.	16B-/	.	16b-/	.	16bb-\	.
16FF/JJ	.	16F/JJ	.	16f/JJ	.	16ff\JJ	.
16GG/LL	.	16G/LL	.	16g/LL	.	16gg\LL	.
16AA/	.	16A/	.	16a/	.	16aa\	.
16BB-/	.	16B-/	.	16b-/	.	16bb-\	.
16FF/	.	16F/	.	16f/	.	16ff\	.
16GG/	.	16G/	.	16g/	.	16gg\	.
16AA/JJ	.	16A/JJ	.	16a/JJ	.	16aa\JJ	.
=128	=128	=128	=128	=128	=128	=128	=128
16BB-/LL	.	16B-/LL	.	16b-/LL	.	16bb-\LL	.
16FFn/	.	16Fn/	.	16fn/	.	16ffn\	.
16GG/	.	16G/	.	16g/	.	16gg\	.
16AA/	.	16A/	.	16a/	.	16aa\	.
16BB-/	.	16B-/	.	16b-/	.	16bb-\	.
16FF/JJ	.	16F/JJ	.	16f/JJ	.	16ff\JJ	.
16GG/LL	.	16G/LL	.	16g/LL	.	16gg\LL	.
16AA/	.	16A/	.	16a/	.	16aa\	.
16BB-/	.	16B-/	.	16b-/	.	16bb-\	.
16FF/	.	16F/)	.	16f/	.	16ff\	.
16GG/	.	16G/	.	16g/	.	16gg\	.
16AA/JJ)	.	16A/JJ	.	16a/JJ)	.	16aa\JJ)	.
=129	=129	=129	=129	=129	=129	=129	=129
16BB-/LL	ff	16B-/LL	ff	16b-/LL	ff	[4.bb-\	ff
16BB-/	.	16Fn/	.	16d/	.	.	.
16BB-/	.	16F/	.	16d/	.	.	.
16BB-/	.	16F/	.	16d/	.	.	.
16BB-/	.	16F/	.	16d/	.	.	.
16BB-/JJ	.	16F/JJ	.	16d/JJ	.	.	.
16BB-/LL	.	16F/LL	.	16d/LL	.	4bb-\]	.
16BB-/	.	16F/	.	16d/	.	.	.
16BB-/	.	16F/	.	16d/	.	.	.
16BB-/	.	16F/	.	16d/	.	.	.
16BB-/	.	16F/	.	16d/	.	8A-/	.
16BB-/JJ	.	16F/JJ	.	16d/JJ	.	.	.
=130	=130	=130	=130	=130	=130	=130	=130
4BBn/	.	[4.dd\	.	[4.ffn\	.	(16G/LL	.
.	.	.	.	.	.	16Bn/	.
.	.	.	.	.	.	16d/	.
.	.	.	.	.	.	16B/	.
8r	.	.	.	.	.	16g/	.
.	.	.	.	.	.	16d/JJ	.
4r	.	4dd\]	.	4ff\]	.	16b\LL	.
.	.	.	.	.	.	16g\	.
.	.	.	.	.	.	16dd\	.
.	.	.	.	.	.	16b\)	.
16GG/LL	.	8d\	.	8fn/	.	16gg'\	.
16GG/JJ	.	.	.	.	.	16gg'\JJ	.
=131	=131	=131	=131	=131	=131	=131	=131
16CC/LL	.	16c/LL	.	16e/LL	.	[4.ccc\	.
16C/	.	16E/ 16G/	.	16e/	.	.	.
16C/	.	16E/ 16G/	.	16e/	.	.	.
16C/	.	16E/ 16G/	.	16e/	.	.	.
16C/	.	16E/ 16G/	.	16e/	.	.	.
16C/JJ	.	16E/JJ 16G/	.	16e/JJ	.	.	.
16C/LL	.	16E/LL 16G/	.	16e/LL	.	4ccc\]	.
16C/	.	16E/ 16G/	.	16e/	.	.	.
16C/	.	16E/ 16G/	.	16e/	.	.	.
16C/	.	16E/ 16G/	.	16e/	.	.	.
16C/	.	16E/ 16G/	.	16e/	.	8B-/	.
16C/JJ	.	16E/JJ 16G/	.	16e/JJ	.	.	.
=132	=132	=132	=132	=132	=132	=132	=132
4C#/	.	[4.ee\	.	[4.gg\	.	(16A/LL	.
.	.	.	.	.	.	16c#/	.
.	.	.	.	.	.	16e/	.
.	.	.	.	.	.	16c#/	.
8r	.	.	.	.	.	16a/	.
.	.	.	.	.	.	16e/JJ	.
4r	.	4ee\]	.	4gg\]	.	16cc#\LL	.
.	.	.	.	.	.	16a\	.
.	.	.	.	.	.	16ee\	.
.	.	.	.	.	.	16cc#\)	.
16AA/LL	.	8e\	.	8g/	.	16aa'\	.
16AA/JJ	.	.	.	.	.	16aa'\JJ	.
=133	=133	=133	=133	=133	=133	=133	=133
.	.	.	.	fnq/LL	.	.	.
.	.	.	.	gq/JJ	.	.	.
16DD/LL	.	16d/LL	.	16fn/LL	.	[4.ddd\	.
16D/	.	16Fn/ 16A/	.	16f/	.	.	.
16D/	.	16F/ 16A/	.	16f/	.	.	.
16D/	.	16F/ 16A/	.	16f/	.	.	.
16D/	.	16F/ 16A/	.	16f/	.	.	.
16D/JJ	.	16F/JJ 16A/	.	16f/JJ	.	.	.
16D\LL	.	16F/LL 16A/	.	16f/LL	.	4ddd\]	.
16D\	.	16F/ 16A/	.	16f/	.	.	.
16D\	.	16F/ 16A/	.	16f/	.	.	.
16D\	.	16F/ 16A/	.	16f/	.	.	.
16D\	.	16F/ 16A/	.	16f/	.	8cn/	.
16D\JJ	.	16F/JJ 16A/	.	16f/JJ	.	.	.
=134	=134	=134	=134	=134	=134	=134	=134
4D#\	.	[4.f#\	.	[4.aa\	.	(16B/LL	.
.	.	.	.	.	.	16d#/	.
.	.	.	.	.	.	16f#/	.
.	.	.	.	.	.	16d#/	.
8r	.	.	.	.	.	16b/	.
.	.	.	.	.	.	16f#/JJ	.
4r	.	4f#\]	.	4aa\]	.	16dd#\LL	.
.	.	.	.	.	.	16b\	.
.	.	.	.	.	.	16ff#\	.
.	.	.	.	.	.	16dd#\)	.
16BB/LL	.	8f#\	.	8a/	.	16bb'\	.
16BB/JJ	.	.	.	.	.	16bb'\JJ	.
=135	=135	=135	=135	=135	=135	=135	=135
[4.E\	ff	(8e\	ff	(8g/	ff	[4.eee\	ff
.	.	[4e\)	.	[4ee\)	.	.	.
4E\]	.	4e\]	.	4ee\]	.	4eee\]	.
8Dn\	.	(8d\	.	(8dd\	.	(8dddn\	.
=136	=136	=136	=136	=136	=136	=136	=136
(Cq/LL	.	cq/LL	.	ccq/LL	.	cccq/LL	.
Dq/JJ	.	dq/JJ	.	ddq/JJ	.	dddq/JJ	.
8C/)	.	8c\)	.	8cc\)	.	8ccc\)	.
8r	.	8r	.	8r	.	8r	.
(8BB/	.	(8B/	.	(8b\	.	(8bb\	.
AAq/LL	.	Aq/LL	.	aq/LL	.	aaq/LL	.
BBq/JJ	.	Bq/JJ	.	bq/JJ	.	bbq/JJ	.
8AA/)	.	8A/)	.	8a/)	.	8aa\)	.
8r	.	8r	.	8r	.	8r	.
(8GG/	.	(8G/	.	(8g/	.	(8gg\	.
=137	=137	=137	=137	=137	=137	=137	=137
FF#q/LL	.	F#q/LL	.	f#q/LL	.	ff#q/LL	.
GGq/JJ	.	Gq/JJ	.	gq/JJ	.	ggq/JJ	.
[4.FF#/)	.	[4.F#/)	.	[4.f#/)	.	[4.ff#\)	.
4FF#/]	.	4F#/]	.	4f#/]	.	4ff#\]	.
(8EE/	.	(8E/	.	(8e/	.	(8ee\	.
=138	=138	=138	=138	=138	=138	=138	=138
DD#q/LL	.	D#q/LL	.	d#q/LL	.	dd#q/LL	.
EEq/JJ	.	Eq/JJ	.	eq/JJ	.	eeq/JJ	.
8DD#/)	.	8D#/)	.	8d#/)	.	8dd#\)	.
8r	.	8r	.	8r	.	8r	.
(8DD#/	.	(8D#/	.	(8d#/	.	(8dd#\	.
CC#q/LL	.	C#q/LL	.	c#q/LL	.	cc#q/LL	.
DD#q/JJ	.	D#q/JJ	.	d#q/JJ	.	dd#q/JJ	.
8EE/)	.	8E/)	.	8e/)	.	8ee\)	.
8r	.	8r	.	8r	.	8r	.
(8AA#/	.	(8A#/	.	(8A#/	.	(8a#/	.
=139	=139	=139	=139	=139	=139	=139	=139
GG##q/LL	.	G##q/LL	.	G##q/LL	.	g##q/LL	.
AA#q/JJ	.	A#q/JJ	.	A#q/JJ	.	a#q/JJ	.
8BB/)	.	8B/)	.	8B/)	.	8b\)	.
8r	.	8r	.	8r	.	8r	.
(8BB/	.	(8B/	.	(8b\	.	(8b\	.
AAnq/LL	.	Anq/LL	.	anq/LL	.	anq/LL	.
BBq/JJ	.	Bq/JJ	.	bq/JJ	.	bq/JJ	.
8C/)	.	8cn/)	.	8ccn\)	.	8ccn\)	.
8r	.	8r	.	8r	.	8r	.
(8FF#/	.	(8F#/	.	(8f#/	.	(8f#/	.
=140	=140	=140	=140	=140	=140	=140	=140
EEq/LL	.	Eq/LL	.	eq/LL	.	eq/LL	.
FF#q/JJ	.	F#q/JJ	.	f#q/JJ	.	f#q/JJ	.
8GG/)	.	8G/)	.	8g/)	.	8g/)	.
8r	.	8r	.	8r	.	8r	.
(8GG/	.	(8G/	.	(8g/	.	(8g/	.
FF#q/LL	.	F#q/LL	.	f#q/LL	.	f#q/LL	.
GGq/JJ	.	Gq/JJ	.	gq/JJ	.	gq/JJ	.
8AA/)	.	8A/)	.	8a/)	.	8a/)	.
8r	.	8r	.	8r	.	8r	.
(8DD#/	.	(8D#/	.	(8d#/	.	(8d#/	.
=141	=141	=141	=141	=141	=141	=141	=141
CC#q/LL	.	C#q/LL	.	c#q/LL	.	c#q/LL	.
DD#q/JJ	.	D#q/JJ	.	d#q/JJ	.	d#q/JJ	.
4EE'/)	.	4E/)	.	8e/)	.	(16e/LL)	.
.	.	.	.	.	.	16g/	ff
.	.	.	.	8r	ff	16f#/	.
.	.	.	.	.	.	16e/	.
8r	ff	8r	ff	8r	.	16d#/	.
.	.	.	.	.	.	16e/JJ	.
4BB'/	.	(16A/LL	.	4r	.	4d#'/)	.
.	.	16c/	.	.	.	.	.
.	.	16B/	.	.	.	.	.
.	.	16A/	.	.	.	.	.
8r	.	16G#/	.	8r	.	8r	.
.	.	16A/JJ)	.	.	.	.	.
=142	=142	=142	=142	=142	=142	=142	=142
2.r	.	4r	.	(16f#/LL	.	(16dd#\LL	p
.	.	.	.	16a/	p	16ff#\	.
.	.	.	.	16g/	.	16ee\	.
.	.	.	.	16f#/	.	16dd#\	.
.	.	8r	.	16e/	.	16cc#\	.
.	.	.	.	16f#/JJ)	.	16dd#\JJ)	.
.	.	16r	.	(16ff#\LL	.	(16aa\LL	.
.	.	(16B\LL	p	16aa\	.	16cccn\	.
.	.	16c#\	.	16gg\	.	16bb\	.
.	.	16d#\	.	16ff#\	.	16aa\	.
.	.	16e\	.	16ee\	.	16gg\	.
.	.	16f#\JJ)	.	16dd#\JJ)	.	16ff#\JJ)	.
=143	=143	=143	=143	=143	=143	=143	=143
(16E\LL	ff	4gn\	ff	4e/ 4b/ 4ee/	ff	4e/ 4b/ 4ee/	ff
16G\	.	.	.	.	.	.	.
16F#\	.	.	.	.	.	.	.
16E\	.	.	.	.	.	.	.
16D#\	.	8r	.	8r	.	8r	.
16E\JJ)	.	.	.	.	.	.	.
4D#\	.	(16A/LL	.	4f#'/ 4b'/	.	4b'\ 4bb'\	.
.	.	16cn/	.	.	.	.	.
.	.	16B/	.	.	.	.	.
.	.	16A/	.	.	.	.	.
8r	.	16G#/	.	8r	.	8r	.
.	.	16A/JJ)	.	.	.	.	.
=144	=144	=144	=144	=144	=144	=144	=144
4r	.	2.r	.	2.r	.	(16d#/LL	.
.	.	.	.	.	.	16f#/	p
.	.	.	.	.	.	16e/	.
.	.	.	.	.	.	16d#/	.
8r	.	.	.	.	.	16c#/	.
.	.	.	.	.	.	16d#/JJ)	.
16r	.	.	.	.	.	(16a/LL	.
(16c\LL	.	.	.	.	.	16ccn/	.
16B\	p	.	.	.	.	16b/	.
16A\	.	.	.	.	.	16a/	.
16G\	.	.	.	.	.	16g/	.
16F#\JJ)	.	.	.	.	.	16f#/JJ)	.
=145	=145	=145	=145	=145	=145	=145	=145
(8E\L	pp	2.r	.	4r	.	(8e/L	.
8BB\	.	.	.	.	.	8B/	pp
8G\J	.	.	.	8r	.	8g/J	.
[4.B\)	.	.	.	(4.B/	.	[4.b\)	.
=146	=146	=146	=146	=146	=146	=146	=146
4B\]	.	(4.F#/	pp	4.A/	.	(16b/LL]	.
.	.	.	.	.	.	16cc/	.
.	.	.	.	.	.	16a/	.
.	.	.	.	.	.	16f#/	.
(8BB/	.	.	.	.	.	16d#/	.
.	.	.	.	.	.	16B/JJ	.
4EE'/)	.	4E'/)	pp	4G'/)	.	4e'/)	.
8r	.	8r	.	8r	.	8r	.
=147	=147	=147	=147	=147	=147	=147	=147
2.r	.	2.r	.	2.r	.	2.r	.
=148	=148	=148	=148	=148	=148	=148	=148
8FFn/L	pp	(8Fn/L	pp	4r	.	(8fn/L	pp
(8CC/	.	8C/	.	.	.	8c/	.
8AA/J	.	8A/J	.	8r	pp	8a/J	.
[4.C/)	.	4.c\	.	(4.c/	.	[4.cc\)	.
=149	=149	=149	=149	=149	=149	=149	=149
4.C/_	.	4.G/	.	4.B-/	.	(16cc\LL]	.
.	.	.	.	.	.	16dd\	.
.	.	.	.	.	.	16b-\	.
.	.	.	.	.	.	16g\	.
.	.	.	.	.	.	16e\	.
.	.	.	.	.	.	16c\JJ	.
(16C/LL]	.	4Fn'/)	.	4A'/)	.	4fn'/)	.
16D/	.	.	.	.	.	.	.
16BB-/	.	.	.	.	.	.	.
16GG/	.	.	.	.	.	.	.
16EE/	.	8r	.	8r	.	8r	.
16CC/JJ	.	.	.	.	.	.	.
=150	=150	=150	=150	=150	=150	=150	=150
4FFn'/)	.	2.r	.	2.r	.	2.r	.
8r	.	.	.	.	.	.	.
4r	.	.	.	.	.	.	.
8r	.	.	.	.	.	.	.
=151	=151	=151	=151	=151	=151	=151	=151
2.r	.	2.r	.	(8f#/L	.	4r	.
.	.	.	.	8d#/	.	.	.
.	.	.	.	[8a/J)	.	8r	.
.	.	.	.	4.a/_	.	(8dd#\L	.
.	.	.	.	.	.	8cc\	.
.	.	.	.	.	.	[8ff#\J)	.
=152	=152	=152	=152	=152	=152	=152	=152
(4.c\	.	2.r	.	2.a/]	>	2.ff#\]	>
4.B\)	p	.	.	.	.	.	.
=153	=153	=153	=153	=153	=153	=153	=153
4r	.	(8d#\L	.	4r	p	(8ff#\L	p
.	.	8B\	.	.	.	8dd#\	.
8r	.	[8f#\J)	.	8r	.	[8aa\J)	.
(8DD#/L	<	(4f#\]	.	[4.cc\	.	4.aa\_	.
8CC/	.	.	.	.	.	.	.
[8FF#/J)	.	8e\)	>	.	.	.	.
=154	=154	=154	=154	=154	=154	=154	=154
2.FF#/]	>	2.d#\	p	(4.cc\]	.	2.aa\]	>
.	.	.	.	4.b\)	.	.	.
=155	=155	=155	=155	=155	=155	=155	=155
[2.EE/	<	4e\	.	4b\	<	(8.gg\L	p
.	.	.	.	.	.	16ee\L	.
.	.	(8E/	<	(8g/	.	16gg\	.
.	.	.	.	.	.	16ee\JJ	.
.	.	4F#/	>	8a/L	>	[4.dd#\)	>
.	.	.	.	16cc/L	.	.	.
.	.	.	.	16b/	.	.	.
.	.	16c\LL	.	16f#/	.	.	.
.	.	16B/JJ)	.	16a/JJ)	.	.	.
=156	=156	=156	=156	=156	=156	=156	=156
2.EE/]	p	(4B/	.	4g/	.	(16dd#\LL]	<
.	.	.	.	.	.	16ee\	.
.	.	.	.	.	.	16ff#\	.
.	.	.	.	.	.	16ee\	.
.	.	8E/	<	(8g/	<	16gg\	.
.	.	.	.	.	.	16ee\JJ	>
.	.	4F#/	>	16a/LL)	.	4.dd#\)	.
.	.	.	.	(16a/	.	.	.
.	.	.	.	16cc/	.	.	.
.	.	.	.	16b/	.	.	.
.	.	16c\LL	.	16f#/	.	.	.
.	.	16B/JJ)	.	16a/JJ)	.	.	.
=157	=157	=157	=157	=157	=157	=157	=157
4E\	>	4B/	.	4g/	.	(16ee\LL	.
.	.	.	.	.	.	16dd#\	.
.	.	.	.	.	.	16ee\	.
.	.	.	.	.	.	16ff#\	p
8r	p	8r	p	8r	p	16gg\	.
.	.	.	.	.	.	16b\JJ	.
4AA/	.	4A/	.	4c/	.	16cc\LL	.
.	.	.	.	.	.	16ddn\	.
.	.	.	.	.	.	16ee\	.
.	.	.	.	.	.	16g#\	.
8r	.	8r	.	8r	.	16a\	.
.	.	.	.	.	.	16b\JJ	.
=158	=158	=158	=158	=158	=158	=158	=158
2.r	.	4r	.	16r	.	8cc'\)	.
.	.	.	.	(16e/LL	.	.	.
.	.	.	.	16f#/	.	8r	.
.	.	.	.	16g#/	.	.	.
.	.	8r	.	16a/	.	8r	.
.	.	.	.	16B/JJ	.	.	.
.	.	8r	.	16c/LL	.	4r	.
.	.	.	.	16d/	.	.	.
.	.	16r	.	16e/JJ)	.	.	.
.	.	(16G#/LL	.	16r	.	.	.
.	.	16A/	.	8r	.	8r	.
.	.	16B/JJ	.	.	.	.	.
=159	=159	=159	=159	=159	=159	=159	=159
4r	.	16c/LL)	.	2.r	.	2.r	.
.	.	(16E/	.	.	.	.	.
.	.	16F#/	.	.	.	.	.
.	.	16G#/	.	.	.	.	.
16r	.	16A/JJ)	.	.	.	.	.
(16E\LL	.	16r	.	.	.	.	.
16F#\	.	8r	.	.	.	.	.
16G#\JJ	.	.	.	.	.	.	.
8A'\)	.	16r	.	.	.	.	.
.	.	(16E/LL	.	.	.	.	.
8r	.	16Fn/	.	.	.	.	.
.	.	16Gn/JJ	.	.	.	.	.
=160	=160	=160	=160	=160	=160	=160	=160
16r	.	16A'/)	.	2.r	.	2.r	.
(16E\LL	.	16r	.	.	.	.	.
16Fn\	.	8r	.	.	.	.	.
16Gn\JJ	.	.	.	.	.	.	.
16A'\)	.	16r	.	.	.	.	.
16r	.	(16C/	.	.	.	.	.
8r	.	16D/LL	.	.	.	.	.
.	.	16E/	.	.	.	.	.
16r	.	16Fn'/JJ)	.	.	.	.	.
(16C/LL	.	16r	.	.	.	.	.
16D/	.	8r	.	.	.	.	.
16E/JJ	.	.	.	.	.	.	.
=161	=161	=161	=161	=161	=161	=161	=161
16Fn/LL)	<	16r	.	8r	.	16r	.
(16CC/	.	(16C/LL	<	.	.	(16b-/LL	<
16DD/	.	16D/	.	8.r	.	16a/	.
16EE/	.	16E/	.	.	.	16g/	.
16FFn/	.	16Fn/	.	.	.	16fn/	.
16CC/JJ	.	16C/JJ	.	(16b-/	<	16dd/JJ	.
16DD/LL	.	16D/LL	.	16a/LL	.	16cc\LL	.
16EE/	.	16E/	.	16g/	.	16b-\	.
16FF/	.	16F/	.	16fn/	.	16a\	.
16CC/	.	16C/	.	16dd/	.	16bb-\	.
16DD/	.	16D/	.	16cc/	.	16aa\	.
16EE/JJ)	.	16E/JJ)	.	16b-/JJ)	.	16gg\JJ)	.
=162	=162	=162	=162	=162	=162	=162	=162
(16FFn/LL	f	(16Fn/LL	f	(16a\LL	f	(16ffn\LL	f
16C/	.	16c/	.	16bb-\	.	16ddd\	.
16D/	.	16d/	.	16aa\	.	16ccc\	.
16E/JJ)	.	16e/JJ)	.	16gg\	.	16bb-\	.
16Fn'\LL	.	16fn'\LL	.	16ffn\	.	16aa\	.
16F'\JJ	.	16f'\JJ	.	16gg\JJ)	.	16bb-\JJ)	.
16F\LL	.	16f\LL	.	(16ff\LL	.	(16aa\LL	.
16F\	.	16f\	.	16ee\	.	16gg#\	.
16F\	.	16f\	.	16ff\	.	16aa\	.
16F\	.	16f\	.	16ee\	.	16ggn\	.
16F\	.	16f\	.	16dd\	.	16ff\	.
16F\JJ	.	16f\JJ	.	16cc\JJ)	.	16ee\JJ)	.
=163	=163	=163	=163	=163	=163	=163	=163
[4.Fn\	ff	[4.fn\	ff	4bn\	ff	(16dd/LL	ff
.	.	.	.	.	.	16G/	.
.	.	.	.	.	.	16d/	.
.	.	.	.	.	.	16Bn/	.
.	.	.	.	8r	.	16g/	.
.	.	.	.	.	.	16d/JJ	.
4F\]	.	4f\]	.	4r	.	16b\LL	.
.	.	.	.	.	.	16g\	.
.	.	.	.	.	.	16dd\	.
.	.	.	.	.	.	16b\)	.
(8FFn/	.	(8Fn/	.	8r	.	16gg'\	.
.	.	.	.	.	.	16gg'\JJ	.
=164	=164	=164	=164	=164	=164	=164	=164
4EE/)	.	4E/)	.	(16G/LL	.	[4.gg\	.
.	.	.	.	16c/	.	.	.
.	.	.	.	16e/	.	.	.
.	.	.	.	16c/	.	.	.
8r	.	8r	.	16g/	.	.	.
.	.	.	.	16e/JJ	.	.	.
4r	.	4r	.	16cc\LL	.	4gg\]	.
.	.	.	.	16g\	.	.	.
.	.	.	.	16ee\	.	.	.
.	.	.	.	16cc\)	.	.	.
8r	.	8r	.	16gg'\	.	(8g/	.
.	.	.	.	16gg'\JJ	.	.	.
=165	=165	=165	=165	=165	=165	=165	=165
.	.	.	.	.	.	fnq/LL	.
.	.	.	.	.	.	gq/JJ	.
[4.D\	.	[4.d\	.	4gg#\	.	16fn'/LL)	.
.	.	.	.	.	.	(16G#/	.
.	.	.	.	.	.	16d/	.
.	.	.	.	.	.	16B/	.
.	.	.	.	8r	.	16f/	.
.	.	.	.	.	.	16d/JJ	.
4D\]	.	4d\]	.	4r	.	16b\LL	.
.	.	.	.	.	.	16f\	.
.	.	.	.	.	.	16dd\	.
.	.	.	.	.	.	16b\)	.
(8DD/	.	(8D/	.	8r	.	16ffn'\	.
.	.	.	.	.	.	16ff'\JJ	.
=166	=166	=166	=166	=166	=166	=166	=166
4CC/)	.	4C/)	.	(16A/LL	.	[4.ee\	.
.	.	.	.	16c/	.	.	.
.	.	.	.	16e/	.	.	.
.	.	.	.	16c/	.	.	.
8r	.	8r	.	16a/	.	.	.
.	.	.	.	16e/JJ	.	.	.
4r	.	4r	.	16cc\LL	.	4ee\]	.
.	.	.	.	16a\	.	.	.
.	.	.	.	16ee\	.	.	.
.	.	.	.	16cc\)	.	.	.
8r	.	8r	.	16aa'\	.	(8e/	.
.	.	.	.	16aa'\JJ	.	.	.
=167	=167	=167	=167	=167	=167	=167	=167
.	.	.	.	.	.	d#q/LL	.
.	.	.	.	.	.	eq/JJ	.
4BB/	.	(16D#/LL	.	[4.aa\	.	4d#/)	.
.	.	16F#/	.	.	.	.	.
.	.	16B/	.	.	.	.	.
.	.	16F#/	.	.	.	.	.
8r	.	16d#/	.	.	.	8r	.
.	.	16B/JJ	.	.	.	.	.
4r	.	16f#\LL	.	4aa\]	.	8r	.
.	.	16d#\	.	.	.	.	.
.	.	16b\	.	.	.	8r	.
.	.	16f#\)	.	.	.	.	.
16BB/LL	.	16dd#'\	.	8a/	.	8ff#\	.
16BB/JJ	.	16dd#'\JJ	.	.	.	.	.
=168	=168	=168	=168	=168	=168	=168	=168
16AA#/LL	ff	[4.ee\	ff	16g/LL	ff	[4.gg\	ff
(16AA#/	.	.	.	(16A#/	.	.	.
16E/	.	.	.	16e/	.	.	.
16C#/	.	.	.	16c#/	.	.	.
16G/	.	.	.	16g/	.	.	.
16E/JJ	.	.	.	16e/JJ	.	.	.
16C#\LL	.	4ee\]	.	16c#/LL	.	4gg\]	.
16AA#\	.	.	.	16A#/	.	.	.
16G\	.	.	.	16g/	.	.	.
16E\	.	.	.	16e/	.	.	.
16C#\	.	(8g\	.	16c#/	.	(8ee\	.
16AA#\JJ)	.	.	.	16A#/JJ)	.	.	.
=169	=169	=169	=169	=169	=169	=169	=169
[4.BB/	.	8f#\L)	.	(8B/L	.	16dd#/LL)	.
.	.	.	.	.	.	(16f#/	.
.	.	16r	.	8d#/	.	16b/	.
.	.	(16c\L	.	.	.	16a/J	.
.	.	16A\	.	8e/J	.	8g/J)	.
.	.	16A#\JJ)	.	.	.	.	.
8.BB/L]	.	16B'/LL	.	8d#/)	.	(4f#/	.
.	.	(16F#/	.	.	.	.	.
.	.	16B/	.	8r	.	.	.
(16Cn/L	.	16An/J	.	.	.	.	.
16AAn/	.	8G/J)	.	16r	.	8e/)	.
16AA#'/JJ)	.	.	.	16c#'/	.	.	.
=170	=170	=170	=170	=170	=170	=170	=170
[4.BB/	.	16F#'/	.	16B'/	.	16d#'/	.
.	.	(16e\LL	.	(16g/LL	.	(16cc\LL	.
.	.	16f#\	.	16an/	.	16a\	.
.	.	16e\	.	16g/	.	16a#\	.
.	.	16d#\	.	16f#/	.	16b\	.
.	.	16c\JJ	.	16a#/JJ	.	16ee\JJ	.
8.BB\L]	.	16B/LL	.	16b\LL	.	16dd#\LL	.
.	.	16A#/	.	16ee\	.	16gg\	.
.	.	16B/	.	16dd#\	.	16ff#\	.
(16F#\L	.	16c#/	.	16ee\	.	16aa#\	.
16BB\	.	16B/	.	16dd#\	.	16bb\	.
16F#\JJ)	.	16c#/JJ)	.	16ee\JJ)	.	16aa#\JJ)	.
=171	=171	=171	=171	=171	=171	=171	=171
(16BB/LL	.	8B'/L	.	8dd#'\L	.	8bb'\L	.
16AA#/	.	.	.	.	.	.	.
16BB/	.	8B'/	.	8dd#'\	.	8bb'\	.
16AA#/	.	.	.	.	.	.	.
16BB/	.	8B'/J	.	8dd#'\J	.	8bb'\J	.
16AA#/JJ)	.	.	.	.	.	.	.
[4.BB/	.	(16B/LL	.	4dd#\	.	4bb\	.
.	.	16A#/	.	.	.	.	.
.	.	16B/	.	.	.	.	.
.	.	16A#/	.	.	.	.	.
.	.	16B/	.	8r	.	8r	.
.	.	16A#/JJ)	.	.	.	.	.
=172	=172	=172	=172	=172	=172	=172	=172
2.BB/_	.	(16B/LL	>	2.r	.	2.r	.
.	.	16A#/	.	.	.	.	.
.	.	16B/	.	.	.	.	.
.	.	16A#/	.	.	.	.	.
.	.	16B/	.	.	.	.	.
.	.	16A#/JJ	.	.	.	.	.
.	.	16B/LL	.	.	.	.	.
.	.	16A#/	.	.	.	.	.
.	.	16B/	.	.	.	.	.
.	.	16A#/	.	.	.	.	.
.	.	16B/	.	.	.	.	.
.	.	16A#/JJ)	.	.	.	.	.
=173	=173	=173	=173	=173	=173	=173	=173
(8.BB/L]	>	(16B/LL	p	2.r	.	2.r	.
.	.	16An/	.	.	.	.	.
.	.	16B/	.	.	.	.	.
16D#/L	.	16A/	.	.	.	.	.
16C#/	.	16B/	.	.	.	.	.
16E/JJ	.	16A/JJ	.	.	.	.	.
8.D#\L	.	16B/LL	.	.	.	.	.
.	.	16A/	.	.	.	.	.
.	.	16B/	.	.	.	.	.
16F#\L	.	16A/	.	.	.	.	.
16E#\	.	16B/	.	.	.	.	.
16G#\JJ)	.	16A/JJ)	.	.	.	.	.
=174	=174	=174	=174	=174	=174	=174	=174
4F#\	.	(16B/LL	.	2.r	.	(8.ff#\L	p
.	.	16A/	.	.	.	.	.
.	.	16B/	.	.	.	.	.
.	.	16A/	.	.	.	16dd#\L	.
8r	.	16B/	.	.	.	16ee\	.
.	.	16A/JJ	.	.	.	16cc#\JJ)	.
4r	.	16B/LL	.	.	.	8b\L	.
.	.	16A/	.	.	.	.	.
.	.	16B/	.	.	.	8b\	.
.	.	16A/	.	.	.	.	.
8r	.	16B/	.	.	.	8b\J	.
.	.	16A/JJ)	.	.	.	.	.
=175	=175	=175	=175	=175	=175	=175	=175
(8.D#\L	.	(16B/LL	.	2.r	.	4b\	.
.	.	16A/	.	.	.	.	.
.	.	16B/	.	.	.	.	.
16F#\L	.	16A/	.	.	.	.	.
16E#\	.	16B/	.	.	.	8r	.
16G#\JJ	.	16A/JJ	.	.	.	.	.
8.F#\L	.	16B/LL	.	.	.	4r	.
.	.	16A/	.	.	.	.	.
.	.	16B/	.	.	.	.	.
16A\L	.	16A/	.	.	.	.	.
16G#\	.	16B/	.	.	.	8r	.
16B\JJ)	.	16A/JJ)	.	.	.	.	.
=176	=176	=176	=176	=176	=176	=176	=176
4A\	.	(16B/LL	.	2.r	.	(8.aa\L	.
.	.	16A/	.	.	.	.	.
.	.	16B/	.	.	.	.	.
.	.	16A/	.	.	.	16ff#\L	.
8r	.	16B/	.	.	.	16gg#\	.
.	.	16A/JJ	.	.	.	16ee\JJ)	.
4r	.	16B/LL	.	.	.	8dd#\L	.
.	.	16A/	.	.	.	.	.
.	.	16B/	.	.	.	8dd#\	.
.	.	16A/	.	.	.	.	.
8r	.	16B/	.	.	.	8dd#\J	.
.	.	16A/JJ)	.	.	.	.	.
=177	=177	=177	=177	=177	=177	=177	=177
(16BB/LL	.	(8.B\L	.	2.r	.	4dd#\	.
16AA/	.	.	.	.	.	.	.
16BB/	.	.	.	.	.	.	.
16AA/	.	16d#\L	.	.	.	.	.
16BB/	.	16c#\	.	.	.	8r	.
16AA/JJ	.	16e\JJ	.	.	.	.	.
16BB/LL	.	8.d#\L	.	.	.	4r	.
16AA/	.	.	.	.	.	.	.
16BB/	.	.	.	.	.	.	.
16AA/	.	16f#\L	.	.	.	.	.
16BB/	.	16e#\	.	.	.	8r	.
16AA/JJ)	.	16g#\JJ)	.	.	.	.	.
=178	=178	=178	=178	=178	=178	=178	=178
(16BB/LL	.	4f#\	.	(8.B/L	p	(8.b\L	.
16AA/	.	.	.	.	.	.	.
16BB/	.	.	.	.	.	.	.
16AA/	.	.	.	16d#/L	.	16dd#\L	.
16BB/	.	8r	.	16c#/	.	16cc#\	.
16AA/JJ	.	.	.	16e/JJ	.	16ee\JJ	.
16BB/LL	.	4r	.	8.d#/L	.	8.dd#\L	.
16AA/	.	.	.	.	.	.	.
16BB/	.	.	.	.	.	.	.
16AA/	.	.	.	16f#/L	.	16ff#\L	.
16BB/	.	8r	.	16e#/	.	16ee#\	.
16AA/JJ)	.	.	.	16g#/JJ)	.	16gg#\JJ)	.
=179	=179	=179	=179	=179	=179	=179	=179
(16BB/LL	.	(8.d#\L	.	4f#/	.	4ff#\	.
16AA/	.	.	.	.	.	.	.
16BB/	.	.	.	.	.	.	.
16AA/	.	16f#\L	.	.	.	.	.
16BB/	.	16e#\	.	8r	.	8r	.
16AA/JJ	.	16g#\JJ	.	.	.	.	.
16BB/LL	.	8.f#\L	.	4r	.	4r	.
16AA/	.	.	.	.	.	.	.
16BB/	.	.	.	.	.	.	.
16AA/	.	16a\L	.	.	.	.	.
16BB/	.	16g#\	.	8r	.	8r	.
16AA/JJ)	.	16b\JJ)	.	.	.	.	.
=180	=180	=180	=180	=180	=180	=180	=180
(16BB/LL	.	4a\	.	(8.d#/L	.	(8.dd#\L	.
16AA/	.	.	.	.	.	.	.
16BB/	.	.	.	.	.	.	.
16AA/	.	.	.	16f#/L	.	16ff#\L	.
16BB/	.	8r	.	16e#/	.	16ee#\	.
16AA/JJ	.	.	.	16g#/JJ	.	16gg#\JJ	.
16BB/LL	.	8r	.	16f#/LL	.	16ff#\LL	.
16AA/	.	.	.	16g#/	.	16gg#\	.
16BB/	.	8r	.	16a/	.	16aa\	.
16AA/	.	.	.	16b/	.	16bb\	.
16BB/	.	(16F#/LL	.	16cc#/	.	16ccc#\	.
16AA/JJ)	.	16D#/JJ)	.	16b/JJ)	.	16bb\JJ)	.
=181	=181	=181	=181	=181	=181	=181	=181
(16GG#/LL	.	(16B/LL	.	4b\	.	(4bb\	.
16E/	.	16En/	.	.	.	.	.
16GG#/	.	16B/	.	.	.	.	.
16E/	.	16E/	.	.	.	.	.
16GG#/	.	16B/	.	8r	.	8eeen\	.
16E/JJ)	.	16E/JJ)	.	.	.	.	.
(16AA/LL	.	(16c#/LL	.	4r	.	4ddd#\	.
16E/	.	16E/	.	.	.	.	.
16AA/	.	16c#/	.	.	.	.	.
16E/	.	16E/	.	.	.	.	.
16AA/	.	16c#/	.	8r	.	8ccc#\)	.
16E/JJ)	.	16E/JJ)	.	.	.	.	.
=182	=182	=182	=182	=182	=182	=182	=182
(16BB/LL	.	(16D#/LL	.	4r	.	(4bb\	.
16D#/	.	16F#/	.	.	.	.	.
16BB/	.	16D#/	.	.	.	.	.
16D#/	.	16F#/	.	.	.	.	.
16BB/	.	16D#/	.	8r	.	8aa\	.
16D#/JJ)	.	16F#/JJ)	.	.	.	.	.
8E\	.	8G#/	.	(16en/LL	.	8gg#\)	.
.	.	.	.	16d#/	.	.	.
16r	.	8r	.	16e/	.	16r	.
(16c#\LL	.	.	.	16f#/	.	(16d#/LL	.
16B\	.	8r	.	16g#/	.	16e/	.
16A\JJ)	.	.	.	16a/JJ)	.	16f#/JJ	.
=183	=183	=183	=183	=183	=183	=183	=183
(4.G#\	.	4r	.	(4b\	.	16e/LL	.
.	.	.	.	.	.	16B/	.
.	.	.	.	.	.	16e/	.
.	.	.	.	.	.	16B/	.
.	.	8r	.	8ee\	.	16e/	.
.	.	.	.	.	.	16B/JJ)	.
4.A\)	.	(16c#/LL	.	4dd#\	.	16e/LL	.
.	.	16A/	.	.	.	(16e/	.
.	.	16c#/	.	.	.	16a/	.
.	.	16A/	.	.	.	16e/	.
.	.	16c#/	.	8cc#\)	.	16a/	.
.	.	16A/JJ)	.	.	.	16e/JJ)	.
=184	=184	=184	=184	=184	=184	=184	=184
(16d#\LL	<	(16f#\LL	<	[4.ccn\	<	(8a\L	<
16f#\	.	16d#\	.	.	.	.	.
16d#\	.	16f#\	.	.	.	8aa\)	.
16f#\	.	16d#\	.	.	.	.	.
16d#\	.	16f#\	.	.	.	8aa\J	.
16f#\JJ	.	16d#\JJ	.	.	.	.	.
16d#\LL	.	16f#\LL	.	(8cc\L]	.	4.aa\	.
16f#\	.	16d#\	.	.	.	.	.
16d#\	.	16f#\	.	8b\)	.	.	.
16f#\	.	16d#\	.	.	.	.	.
16d#\	.	16f#\	.	8b\J	.	.	.
16f#\JJ)	.	16d#\JJ)	.	.	.	.	.
=185	=185	=185	=185	=185	=185	=185	=185
(4.e\	p	(4.e\	p	(8b\L 8ee\	p	[4.gg#\	p
.	.	.	.	16ee\L	.	.	.
.	.	.	.	16dd#\	.	.	.
.	.	.	.	16cc#\	.	.	.
.	.	.	.	16b\JJ)	.	.	.
4.A\)	.	8c#\L)	.	(8.cc#\L	.	(16gg#\LL]	.
.	.	.	.	.	.	16ee#\	.
.	.	(16a\L	.	.	.	16ff#\	.
.	.	16g#\	.	16b\L	.	16aa\)	.
.	.	16f#\	.	16a\	.	16ccc#'\	.
.	.	16e\JJ)	.	16g#\JJ)	.	16ccc#'\JJ	.
=186	=186	=186	=186	=186	=186	=186	=186
(16B\LL	.	[4.d#\	.	[4.f#/	.	(4ccc#\	.
16D#\	.	.	.	.	.	.	.
16F#\	.	.	.	.	.	.	.
16E\	.	.	.	.	.	.	.
16D#\	.	.	.	.	.	[8bb\)	.
16C#\JJ)	.	.	.	.	.	.	.
4.BB/	.	(8d#\L]	.	(8f#/L]	.	(16bb\LL]	.
.	.	.	.	.	.	16ddd#\	.
.	.	8B\J	.	8d#/J	.	16fff#\	.
.	.	.	.	.	.	16ddd#\	.
.	.	16c#\LL	.	16e/LL	.	16bb\	.
.	.	16d#\JJ)	.	16f#/JJ)	.	16aa\JJ)	.
=187	=187	=187	=187	=187	=187	=187	=187
4.BB/ 4.E/	.	(16e\LL	.	(16g#\LL	.	(4gg#\	.
.	.	16B\	.	16b\	.	.	.
.	.	16e\	.	16ee\	.	.	.
.	.	16d#\	.	16dd#\	.	.	.
.	.	16c\	.	16cc#\	.	[8g#/)	.
.	.	16B#\JJ)	.	16b#\JJ)	.	.	.
(16A\LL	.	(8.c/L	.	(8.cc#\L	.	(16g#/LL]	.
16AA\JJ	.	.	.	.	.	16e#/	.
16A\LL	.	.	.	.	.	16f#/	.
16G#\	.	16Bn/L	.	16bn\L	.	16a/)	.
16F#\)	.	16A/	.	16a\	.	16cc#'/	.
16E\JJ	.	16G#/JJ)	.	16g#\JJ)	.	16cc#'/JJ	.
=188	=188	=188	=188	=188	=188	=188	=188
(16D#\LL	.	(16F#/LL	.	(16f#/LL	.	(4cc#\	.
16E\	.	16G#/	.	16g#/	.	.	.
16F#\	.	16A/	.	16a/	.	.	.
16E\	.	16G#/	.	16g#/	.	.	.
16D#\	.	16F#/	.	16f#/	.	[8b\)	.
16C#\JJ	.	16E/JJ)	.	16e/JJ	.	.	.
8.BB/L)	.	(16D#/LL	.	16d#/LL)	.	(16b\LL]	.
.	.	16B/	.	(16d#/	.	16dd#\	.
.	.	16A#/	.	16c#/	.	16ff#\	.
(16BB/L	.	16B/	.	16d#/	.	16dd#\	.
16C#/	.	16B/	.	16e/	.	16b\	.
16D#/JJ)	.	16B/JJ)	.	16f#/JJ)	.	[16a\JJ)	.
=189	=189	=189	=189	=189	=189	=189	=189
4.E\	.	4.E/	.	4.B/	.	(16a\LL]	.
.	.	.	.	.	.	16f##\	.
.	.	.	.	.	.	16a\	.
.	.	.	.	.	.	16g#\	.
.	.	.	.	.	.	16ff#\	.
.	.	.	.	.	.	16een\JJ)	.
[4.AA#/	.	[4.F#/	.	[4.e/	.	16r	.
.	.	.	.	.	.	(16f#\LL	.
.	.	.	.	.	.	16cc#\	.
.	.	.	.	.	.	16b#\	.
.	.	.	.	.	.	16dd#\	.
.	.	.	.	.	.	16cc#\JJ)	.
=190	=190	=190	=190	=190	=190	=190	=190
(8AA#/L]	<	(8F#/L]	<	(8e/L]	<	(8cc#\	<
8BB/)	.	8G#/)	.	8B/)	.	[4e/)	.
8BB/J	.	8G#/J	.	8B/J	.	.	.
(8BB/L	.	(8G#/L	.	(8B/L	.	(8e/L]	.
8BB/)	.	8B/)	.	8e/)	.	8g#/)	.
8BB'/J	.	8An'/J	.	8d#'/J	.	8f#'/J	.
=191	=191	=191	=191	=191	=191	=191	=191
8.C/L	.	2.r	.	8.A/L	f	8.d#/L 8.f#/	f
16BB'/L	f	.	.	16B'/L	.	16d#'/L 16f#'/	.
16AAn'/	.	.	.	16c'/	.	16d#'/ 16f#'/	.
16BB'/JJ	.	.	.	16B'/JJ	.	16d#'/JJ 16f#'/	.
8.C/L	.	.	.	8.A/L	.	8.d#/L 8.f#/	.
16BB'/L	.	.	.	16B'/L	.	16d#'/L 16f#'/	.
16AA'/	.	.	.	16c'/	.	16d#'/ 16f#'/	.
16AA'/JJ	.	.	.	16c'/JJ	.	16d#'/JJ 16f#'/	.
=192	=192	=192	=192	=192	=192	=192	=192
8.c#\L	.	8.a#\L	.	8.e/L	.	8.gn/L	.
16B'\L	.	16b'\L	.	16e'/L	.	16g'/L	.
16A#'\	.	16cc#'\	.	16e'/	.	16g'/	.
16B'\JJ	.	16b'\JJ	.	16e'/JJ	.	16g'/JJ	.
8.c#\L	.	8.a#\L	.	8.e/L	.	8.g/L	.
16B'\L	.	16b'\L	.	16e'/L	.	16g'/L	.
16A#'\	.	16cc#'\	.	16e'/	.	16g'/	.
16A#'\JJ	.	16cc#'\JJ	.	16e'/JJ	.	16g'/JJ	.
=193	=193	=193	=193	=193	=193	=193	=193
4An\	>	(4cc#\	>	[4.d#/	>	[4.f#/	>
[8AA/	.	[8ccn\)	.	.	.	.	.
(8AA/L]	.	(8cc\L]	.	(8d#/L]	p	(8f#/L]	p
8GG#/)	p	8b\)	p	8e/)	.	8B/)	.
[8C#/J	.	[8an\J	.	[8e/J	.	[8A/J	.
=194	=194	=194	=194	=194	=194	=194	=194
(8C#/L]	.	(8a\L]	.	4e/]	.	(8A/L]	.
8BB/	.	8g#\)	.	.	.	8B/)	.
8AA#/J)	.	8f#'\J	.	8e/	.	8c#'/J	.
4BB/	.	(4e\	.	(4G#/	.	(4B/	.
8BB/	.	16g#\LL	.	8A/)	.	8d#/)	.
.	.	16f#\JJ)	.	.	.	.	.
=195	=195	=195	=195	=195	=195	=195	=195
8.Cn/L	f	8.A/L	f	8.d#/L	f	8.f#/L	f
16BB'/L	.	16B'/L	.	16d#'/L	.	16f#'/L	.
16AAn'/	.	16c'/	.	16d#'/	.	16f#'/	.
16AA'/JJ	.	16c'/JJ	.	16d#'/JJ	.	16f#'/JJ	.
8.GG#/L	.	8.c/L	.	8.d#/L	.	8.f#/L	.
16GG#/L	.	16c/L	.	16d#/L	.	16f#/L	.
16GG#/	.	16c#/	.	16c#/	.	16e/	.
16GGn/JJ	.	16B/JJ	.	16cc#/JJ	.	16ee/JJ	.
=196	=196	=196	=196	=196	=196	=196	=196
8.FF#/L	.	8.A#/L	.	8.cc#\L	.	8.ee\L	.
16F#/L	.	16A#/L	.	16cc#\L	.	16ee\L	.
16F#/	.	16B/	.	16b\	.	16ddn\	.
16Fn/JJ	.	16An/JJ	.	16ddn\JJ 16bb\	.	16ddd\JJ	.
8.E\L	.	8.G#\L	.	8.dd\L 8.bb\	.	8.ddd\L	.
16E\L	.	16g#\L	.	16b\L	.	16ddd\L	.
16A\	.	16a\	.	16a\	.	16ccc#\	.
16A#\JJ	.	16gn\JJ	.	16cc#\JJ 16ee\	.	16eee\JJ	.
=197	=197	=197	=197	=197	=197	=197	=197
[2.B\	.	8g#\L	.	8b\ 8ee\	.	(4.eee\	>
.	.	8B\	.	8r	.	.	.
.	.	[8b\J	.	8r	.	.	.
.	.	(16b\LL]	.	4r	.	[4.ddd\)	.
.	.	16cc#\	>	.	.	.	.
.	.	16b\	.	.	.	.	.
.	.	16a\	.	.	.	.	.
.	.	16g#\	.	8r	.	.	.
.	.	16f#\JJ)	.	.	.	.	.
=198	=198	=198	=198	=198	=198	=198	=198
(4.B\]	>	(4.e#\	.	(4.g#/	.	(4ddd\]	.
.	.	.	.	.	.	[8ccc#\	p
4A#\	p	4f#\	p	4cc#\	p	4ccc#\]	.
8An\	.	8d#\)	.	8f#/)	.	8cccn\)	.
=199	=199	=199	=199	=199	=199	=199	=199
8G#\)	.	8en\	.	8b\	.	(16bb\LL	.
.	.	.	.	.	.	16aa\	.
(8BB\L	.	8r	.	8r	.	16gg#\	.
.	.	.	.	.	.	16ff#\	.
[8B\J)	.	8r	.	8r	.	16ee\	.
.	.	.	.	.	.	16dd#\JJ	.
4B\]	.	(8Dn/	.	8r	.	16ddn\LL	.
.	.	.	.	.	.	16cc#\	.
.	.	4B/)	.	(8G#/L	.	16b\	.
.	.	.	.	.	.	16a\	.
[8BB/	.	.	.	[8d/J)	.	16g#\	.
.	.	.	.	.	.	16f#\JJ)	.
=200	=200	=200	=200	=200	=200	=200	=200
4BB/]	pp	4G#/	pp	4d/]	pp	(4e#/	pp
[8AA#/	.	[8F#/	.	[8c#/	.	[8f#/)	.
4AA#/]	.	4F#/]	.	4c#/]	.	4f#/]	.
[8AAn/	.	[8F#/	.	[8cn/	.	[8d#/	.
=201	=201	=201	=201	=201	=201	=201	=201
8AA/]	.	8F#/]	.	8c/]	.	8d#/]	.
[8GG#/L	.	[8E/L	.	[8B/L	.	[8e/L	.
8GG#/J]	.	8E/J]	.	8B/J]	.	8e/J]	.
[8GG#/L	.	[8E#/L	.	[8B/L	.	[8dn/L	.
8GG#/J]	.	8E#/J]	.	8B/J]	.	8d/J]	.
[8AA/	.	[8F#/	.	[8A/	.	[8c#/	.
=202	=202	=202	=202	=202	=202	=202	=202
8AA/]	.	8F#/]	.	8A/]	.	8c#/]	.
[8AA#/L	.	[8Gn/L	.	[8c#/L	.	[8e/L	.
8AA#/J]	.	8G/J]	.	8c#/J]	.	8e/J]	.
[8BB/L	.	[8G/L	.	[8B/L	.	[8e/L	.
8BB/J]	.	8G/J]	.	8B/J]	.	8e/J]	.
[8C/	.	[8G/	.	[8A#/	.	[8e/	.
=203	=203	=203	=203	=203	=203	=203	=203
8C/]	.	8G/]	.	8A#/]	.	8e/]	.
[8C#/L	<	[8G/L	<	[8A#/L	<	[8e/L	<
8C#/J]	.	8G/J]	.	8A#/J]	.	8e/J]	.
[8C#/L	.	[8G/L	.	[8A#/L	.	[8e/L	.
8C#/J]	.	8G/J]	.	8A#/J]	.	8e/J]	.
[8C#/	.	[8G/	.	[8A#/	.	[8e/	.
=204	=204	=204	=204	=204	=204	=204	=204
8C#/]	.	8G/]	.	8A#/]	.	8e/]	.
[8Cn/L	.	[8A#/L	.	[8e/L	.	[8g/L	.
8C/J]	.	8A#/J]	.	8e/J]	.	8g/J]	.
[8C/L	.	[8A#/L	.	[8e/L	.	[8g/L	.
8C/J]	.	8A#/J]	.	8e/J]	.	8g/J]	.
[8C/	.	[8A#/	.	[8e/	.	[8g/	.
=205	=205	=205	=205	=205	=205	=205	=205
8C/]	.	8A#/]	.	8e/]	.	8g/]	.
[8BB/L	<	[8B\L [8e\	<	[8g#/L	<	[8b\L	<
8BB/J]	.	8B\J] 8e\]	.	8g#/J]	.	8b\J]	.
[8BB/L	.	[8B\L [8e\	.	[8g#/L	.	[8b\L	.
8BB/J]	.	8B\J] 8e\]	.	8g#/J]	.	8b\J]	.
[8BB/	.	[8B\ [8e\	.	[8g#/	.	[8b\	.
=206	=206	=206	=206	=206	=206	=206	=206
8BB/]	.	8B\] 8e\]	.	8g#/]	.	8b\]	.
[8BB/L	f	[8B\L [8an\	f	8f#/L [8dd#/	f	[8b\L [8bb\	f
8BB/J]	.	8B\J] 8a\]	.	8f#/J 8dd#/]	.	8b\J] 8bb\]	.
[8BB/L	.	[8B\L [8a\	.	[8f#/L [8dd#/	.	[8b\L [8bb\	.
8BB/J]	.	8B\J] 8a\]	.	8f#/J] 8dd#/]	.	8b\J] 8bb\]	.
8BB/	.	8B\ 8a\	.	8f#/ 8dd#/	.	8b\ 8bb\	.
=207	=207	=207	=207	=207	=207	=207	=207
16E/LL	.	16G#/LL	.	4g#\ 4ee\	.	(16bb\LL	.
(16BB/	.	(16B/	.	.	.	16gg#\)	.
16E/)	.	16G#/)	.	.	.	16ee'\	.
(16BB/	.	(16B/	.	.	.	16b'\	.
16E/)	.	16G#/)	.	8r	.	16g#'\	.
(16BB/JJ	.	(16B/JJ	.	.	.	16e'\JJ	.
16E/LL)	.	16G#/LL)	.	4r	.	4.B/	.
(16BB/	.	(16B/	.	.	.	.	.
16E/)	.	16G#/)	.	.	.	.	.
(16BB/	.	(16B/	.	.	.	.	.
16E/)	.	16G#/)	.	8r	.	.	.
(16BB/JJ	.	(16B/JJ	.	.	.	.	.
=208	=208	=208	=208	=208	=208	=208	=208
16D#/LL)	.	16A/LL)	.	2.r	.	(16bb\LL	.
(16BB/	.	(16B/	.	.	.	16aa\)	.
16D#/)	.	16A/)	.	.	.	16ff#'\	.
(16BB/	.	(16B/	.	.	.	16b'\	.
16D#/)	.	16A/)	.	.	.	16a'\	.
(16BB/JJ	.	(16B/JJ	.	.	.	16f#'\JJ	.
16D#/LL)	.	16A/LL)	.	.	.	4.B/	.
(16BB/	.	(16B/	.	.	.	.	.
16D#/)	.	16A/)	.	.	.	.	.
(16BB/	.	(16B/	.	.	.	.	.
16D#/)	.	16A/)	.	.	.	.	.
(16BB/JJ	.	16B/JJ	.	.	.	.	.
=209	=209	=209	=209	=209	=209	=209	=209
16E/LL)	.	(16b\LL	.	16g#/LL	.	4r	.
(16BB/	.	16g#\)	.	(16b/	.	.	.
16E/)	.	16e'\	.	16g#/)	.	.	.
(16BB/	.	16B'\JJ	.	(16b/	.	.	.
16E/)	.	16G#'/LL	.	16g#/)	.	8r	.
(16BB/JJ	.	16B'/JJ	.	(16b/JJ	.	.	.
16E/LL)	.	4.E/	.	16g#/LL)	.	(16bb\LL	.
(16BB/	.	.	.	(16b/	.	16gg#\)	.
16E/)	.	.	.	16g#/)	.	16ee'\	.
(16BB/	.	.	.	(16b/	.	16b'\	.
16E/)	.	.	.	16g#/)	.	16g#'\	.
(16BB/JJ	.	.	.	(16b/JJ	.	16e'\JJ	.
=210	=210	=210	=210	=210	=210	=210	=210
16D#/LL)	.	(16b\LL	.	16a/LL)	.	4.B/	.
(16BB/	.	16a\)	.	(16b/	.	.	.
16D#/)	.	16f#'\	.	16a/)	.	.	.
(16BB/	.	16B'\JJ	.	(16b/	.	.	.
16D#/)	.	16A'/LL	.	16a/)	.	.	.
(16BB/JJ	.	16B'/JJ	.	(16b/JJ	.	.	.
16D#/LL)	.	4.F#/	.	16a/LL)	.	(16bb\LL	.
(16BB/	.	.	.	(16b/	.	16aa\)	.
16D#/)	.	.	.	16a/)	.	16ff#'\	.
(16BB/	.	.	.	(16b/	.	16b'\	.
16D#/)	.	.	.	16a/)	.	16a'\	.
(16BB/JJ	.	.	.	(16b/JJ	.	16f#'\JJ	.
=211	=211	=211	=211	=211	=211	=211	=211
*>B1	*>B1	*>B1	*>B1	*>B1	*>B1	*>B1	*>B1
4E\)	.	4E/	.	4g#/)	.	(16bb\LL	.
.	.	.	.	.	.	16gg#\)	.
.	.	.	.	.	.	16ee'\	.
.	.	.	.	.	.	16b'\	.
8r	.	8r	.	8r	.	16g#'\	.
.	.	.	.	.	.	16e'\JJ	.
[4.Dn\	.	4fn\	.	4a-/	.	(16b/LL	.
.	.	.	.	.	.	16a-/)	p
.	.	.	.	.	.	16fn'/	.
.	.	.	.	.	.	16b'/	.
.	.	8r	p	8r	p	16g#'/	.
.	.	.	.	.	.	16f'/JJ	.
=212	=212	=212	=212	=212	=212	=212	=212
4.D\_	p	4r	.	4r	.	16b'/LL	.
.	.	.	.	.	.	16a-'/	.
.	.	.	.	.	.	16fn'/	.
.	.	.	.	.	.	16b'/	.
.	.	8r	.	8r	.	16a-'/	.
.	.	.	.	.	.	16fn'/JJ	.
8D\L]	.	4r	.	4r	.	(16b-/LL	.
.	.	.	.	.	.	16a-/)	.
(8Fn\	.	.	.	.	.	16f'/	.
.	.	.	.	.	.	16d'/	.
8BB-\J)	.	(8Fn/	p	(8d/	p	16B-'/	.
.	.	.	.	.	.	16A-'/JJ	.
=213	=213	=213	=213	=213	=213	=213	=213
4E-'\	f	4G'/)	.	4Gn'/) 4e-'/ 4b-'/	f	4Gn'/ 4e-'/ 4ee-'/	f
8r	.	8r	f	8r	.	8r	.
4D'\	.	4Fn'/	.	4fn'/ 4b-'/	.	4b-'\ 4bb-'\	.
8r	.	8r	.	8r	.	8r	.
=214	=214	=214	=214	=214	=214	=214	=214
2.r	.	2.r	.	2.r	.	2.r	.
=215:|!	=215:|!	=215:|!	=215:|!	=215:|!	=215:|!	=215:|!	=215:|!
*>B2	*>B2	*>B2	*>B2	*>B2	*>B2	*>B2	*>B2
(16B\LL	.	16E/LL	.	16g/LL	.	4G/ 4en/	.
16G\)	.	(16G/	.	(16bn/	.	.	.
16En'\	.	16E/)	.	16g/)	.	.	.
16BB'\JJ	.	(16G/	.	(16b/	.	.	.
16GG'/LL	.	16E/)	.	16g/)	.	8r	.
16EE'/JJ	.	(16G/JJ	.	(16b/JJ	.	.	.
4DD/	.	16D/LL)	.	16fn/LL)	.	(16ffn\LL	.
.	.	(16G/	.	(16b/	.	16dd\)	.
.	.	16D/)	.	16f/)	.	16b'\	.
.	.	(16G/	.	(16b/	.	16g'\JJ	.
8GG/	.	16D/)	.	16f/)	.	16fn'/LL	.
.	.	16G/JJ	.	16b/JJ	.	16d'/JJ	.
=216	=216	=216	=216	=216	=216	=216	=216
*>C	*>C	*>C	*>C	*>C	*>C	*>C	*>C
4CC'/	ff	4C'/	ff	4G'/ 4e'/ 4cc'/	ff	4G'/ 4e'/ 4cc'/	ff
8r	.	8r	.	8r	.	8r	.
4BB'/	.	4B'\ 4d'\	.	4G'/ 4fn'/ 4dd'/	.	4dd'\ 4gg'\	.
8r	.	8r	.	8r	.	8r	.
=217	=217	=217	=217	=217	=217	=217	=217
2.r	.	2.r	.	2.r	.	2.r	.
=218	=218	=218	=218	=218	=218	=218	=218
4C/	p	4c\	p	4G/ 4e-/	p	4c/	p
8r	.	8r	.	8r	.	8r	.
4BB/	.	4d\	.	4G/ 4fn/	.	4g/	.
8r	.	8r	.	8r	.	8r	.
=219	=219	=219	=219	=219	=219	=219	=219
2.r	.	2.r	.	2.r	.	2.r	.
=220	=220	=220	=220	=220	=220	=220	=220
(4C'/	pp	(4c'\	pp	(4G'/ 4e-'/	pp	(4c'/	pp
8r	.	8r	.	8r	.	8r	.
4BB-'/)	.	4d-'\)	.	4G'/) 4e-'/	.	4g'/)	.
8r	.	8r	.	8r	.	8r	.
=221	=221	=221	=221	=221	=221	=221	=221
2.r	.	2.r	.	2.r	.	2.r	.
=222	=222	=222	=222	=222	=222	=222	=222
4GG#/	f	4D#/	f	4B/	f	4B/ 4g#/	f
8r	.	8r	.	8r	f	8r	.
[4.GGn/	f	[4.D#/	f	(4.A#/	.	[4.dd#\	f
=223	=223	=223	=223	=223	=223	=223	=223
2.GG/]	>	2.D#/_	>	4.d#/	.	2.dd#\_	>
.	.	.	.	4.a#/)	.	.	.
=224	=224	=224	=224	=224	=224	=224	=224
[2.GG#/	.	4.D#/]	.	2.b\	.	2.dd#\_	.
.	.	(8G#/L	p	.	.	.	.
.	.	8D#/	.	.	.	.	.
.	.	[8B/J)	.	.	.	.	.
=225	=225	=225	=225	=225	=225	=225	=225
2.GG#/_	p	2.B/_	.	(8g#/L	p	2.dd#\_	p
.	.	.	.	8d#/	.	.	.
.	.	.	.	8b/J)	p	.	.
.	.	.	.	[4.b\	.	.	.
=226	=226	=226	=226	=226	=226	=226	=226
2.GG#/_	p	4.B/]	p	2.b\]	.	2.dd#\]	p
.	.	(8G#/L	.	.	.	.	.
.	.	8D#/	.	.	.	.	.
.	.	[8B/J)	.	.	.	.	.
=227	=227	=227	=227	=227	=227	=227	=227
2.GG#/]	.	2.B/_	.	(8g#/L	.	[2.ee\	.
.	.	.	.	8e/	.	.	.
.	.	.	.	[8b/J	.	.	.
.	.	.	.	4.b/])	.	.	.
=228	=228	=228	=228	=228	=228	=228	=228
2.AA/	.	4.B/]	.	2.cc\	.	2.ee\]	.
.	.	(8A/L	.	.	.	.	.
.	.	8E/	.	.	.	.	.
.	.	[8c/J	.	.	.	.	.
=229	=229	=229	=229	=229	=229	=229	=229
2.FFn/	.	4.c/])	.	(8a/L	.	2.dd\	.
.	.	.	.	8d/	.	.	.
.	.	.	.	[8cc/J	.	.	.
.	.	(8Fn/L	.	4.cc/])	.	.	.
.	.	8D/	.	.	.	.	.
.	.	8A/J	.	.	.	.	.
=230	=230	=230	=230	=230	=230	=230	=230
2.GG/	.	4.G/)	.	(8e/L	.	2.cc\	.
.	.	.	.	8c/	.	.	.
.	.	.	.	[8g/J	.	.	.
.	.	(8E/L	.	4.g/])	.	.	.
.	.	8C/	.	.	.	.	.
.	.	8G/J	.	.	.	.	.
=231	=231	=231	=231	=231	=231	=231	=231
2.GG#/	.	4.Fn/)	.	(8d/L	.	2.b\	.
.	.	.	.	8B/	.	.	.
.	.	.	.	[8fn/J	.	.	.
.	.	(8B/L	.	4.f/])	.	.	.
.	.	8Fn/	.	.	.	.	.
.	.	[8d/J)	.	.	.	.	.
=232	=232	=232	=232	=232	=232	=232	=232
(2.AA/	.	(8d/L]	.	[2.e/	.	(4.cc\	.
.	.	8E/	.	.	.	.	.
.	.	8c/J	.	.	.	.	.
.	.	8E/L	.	.	.	4.a/	.
.	.	8c/	.	.	.	.	.
.	.	8E/J)	.	.	.	.	.
=233	=233	=233	=233	=233	=233	=233	=233
4.BB/	.	(8B/L	.	(4.e/]	.	4.g/	.
.	.	8E/	.	.	.	.	.
.	.	8B/J	.	.	.	.	.
4.C/)	.	8F#/L	.	4.d#/)	.	4.f#/)	.
.	.	8A/	.	.	.	.	.
.	.	8F#/J)	.	.	.	.	.
=234	=234	=234	=234	=234	=234	=234	=234
8C/L	.	8A/L	.	8d#/	.	8f#/	pp
8r	pp	8r	pp	4d#/	pp	4f#/	.
8C/J	.	8A/J	.	.	.	.	.
8r	.	8r	.	4d#/	.	4f#/	.
8C/	.	8A/	.	.	.	.	.
8r	.	8r	.	[8d#/	.	[8f#/	.
=235	=235	=235	=235	=235	=235	=235	=235
8C/L	.	8A/L	.	8d#/]	.	8f#/]	.
8r	.	8r	.	4d#/	.	4f#/	.
8C/J	.	8A/J	.	.	.	.	.
8r	.	8r	.	4d#/	.	4f#/	.
8C/	.	8A/	.	.	.	.	.
8r	.	8r	.	[8d#/	.	[8f#/	.
=236	=236	=236	=236	=236	=236	=236	=236
8BB/L	.	8F#/L 8A/	.	8d#/]	.	8f#/]	.
8r	<	8r	<	4f#/	<	4a/	<
8BB/J	.	8F#/J 8A/	.	.	.	.	.
8r	.	8r	.	4f#/	.	4a/	.
8BB/	.	8F#/ 8A/	.	.	.	.	.
8r	.	8r	.	[8f#/	.	[8a/	.
=237	=237	=237	=237	=237	=237	=237	=237
8BB/L	.	8F#/L 8A/	.	8f#/]	.	8a/]	.
8r	.	8r	.	4a/	.	4cc\	.
8BB/J	.	8F#/J 8A/	.	.	.	.	.
8r	.	8r	.	4cc\	.	4dd#\	.
8BB/	.	8F#/ 8A/	.	.	.	.	.
8r	.	8r	.	[8dd#\	.	[8ff#\	.
=238	=238	=238	=238	=238	=238	=238	=238
8BB/L	.	8F#/L 8A/	.	8dd#\]	.	8ff#\]	.
8r	.	8r	.	4ff#\	.	4aa\	.
8BB/J	.	8F#/J 8A/	.	.	.	.	.
8r	.	8r	.	4aa\	.	4ccc\	.
8BB/	.	8F#/ 8A/	.	.	.	.	.
8r	.	8r	.	[8ff#\	.	[8aa\	.
=239	=239	=239	=239	=239	=239	=239	=239
8BB/L	.	8F#/L 8A/	.	8ff#\]	.	8aa\]	.
8r	ff	8r	ff	4dd#\	ff	4ff#\	ff
8BB/J	.	8F#/J 8A/	.	.	.	.	.
8r	.	8r	.	4cc\	.	4dd#\	.
8BB/	.	8F#/ 8A/	.	.	.	.	.
8r	.	8r	.	[8a/	.	[8cc\	.
=240	=240	=240	=240	=240	=240	=240	=240
8BB/L	.	8F#/L 8A/	.	8a/]	.	8cc\]	.
8r	.	8r	.	4f#/	.	4a/	.
8BB/J	.	8F#/J 8A/	.	.	.	.	.
8r	.	8r	.	4d#/	.	4f#/	.
8BB/	.	8F#/ 8A/	.	.	.	.	.
8r	.	8r	.	[8c/	.	[8d#/	.
=241	=241	=241	=241	=241	=241	=241	=241
8BB/L	.	8F#/L 8A/	.	8c/]	.	8d#/]	.
8r	.	8r	.	4A/	.	4c/	.
8BB/J	.	8F#/J 8A/	.	.	.	.	.
8r	.	8r	.	4f#/ 4a/	.	4d#/ 4cc/	.
8BB/	.	8F#/ 8A/	.	.	.	.	.
8r	.	8r	.	[8f#/ [8a/	.	[8d#/ [8cc/	.
=242	=242	=242	=242	=242	=242	=242	=242
8BB/L	.	8F#/L 8A/	.	8f#/] 8a/]	.	8d#/] 8cc/]	.
8r	.	8r	.	4f#/ 4a/	.	4d#/ 4cc/	.
8BB/J	.	8F#/J 8A/	.	.	.	.	.
8r	.	8r	.	4f#/ 4a/	.	4d#/ 4cc/	.
8BB/L	.	8F#/L 8A/	.	.	.	.	.
[8BB/J	.	[8F#/J [8A/	.	8f#/ 8a/	.	8d#/ 8cc/	.
=243	=243	=243	=243	=243	=243	=243	=243
4.BB/]	.	4.F#/] 4.A/]	.	2.f#/ 2.a/	.	2.d#/ 2.cc/	.
[4.BB/	ff	[4.F#/ [4.A/	ff	.	.	.	.
=244	=244	=244	=244	=244	=244	=244	=244
4.BB/]	.	4.F#/] 4.A/]	.	[2.f#/ [2.a/	ff	[2.d#/ [2.cc/	ff
[4.BB/	.	[4.F#/ [4.A/	>	.	.	.	.
=245	=245	=245	=245	=245	=245	=245	=245
2.BB/_	ff	2.F#/_ 2.A/_	.	2.f#/_ 2.a/_	>	2.d#/_ 2.cc/_	.
=246	=246	=246	=246	=246	=246	=246	=246
8BB/]	.	8F#/] 8A/]	.	8f#/] 8a/]	.	(16d#/LL] 16cc/]	.
.	.	.	.	.	.	16b/	p
8r	p	8r	p	8r	p	16a#/	.
.	.	.	.	.	.	16b/	.
8r	.	8r	.	8r	.	16dd#/	.
.	.	.	.	.	.	16ff#/JJ	.
4r	.	4r	.	4r	.	16aan\LL	.
.	.	.	.	.	.	16gg\	.
.	.	.	.	.	.	16ff#\	.
.	.	.	.	.	.	16aa\	.
8r	.	8r	.	8r	.	16ccc\	.
.	.	.	.	.	.	16dd#\JJ)	.
=247	=247	=247	=247	=247	=247	=247	=247
[2.e\	pp	(4.e\	pp	(4.g/	pp	8.ee\L	pp
.	.	.	.	.	.	(16ee\L	.
.	.	.	.	.	.	16gg\	.
.	.	.	.	.	.	16ee\JJ)	.
.	.	4f#\	.	8a/L	.	[4.dd#\	.
.	.	.	.	16cc/L	.	.	.
.	.	.	.	16b/	.	.	.
.	.	16cc\LL)	.	16f#/)	.	.	.
.	.	16b\JJ	.	16a/JJ	.	.	.
=248	=248	=248	=248	=248	=248	=248	=248
2.e\]	.	(4b\	.	4g/	.	16dd#\LL]	.
.	.	.	.	.	.	(16ee\	.
.	.	.	.	.	.	16ff#\	.
.	.	.	.	.	.	16ee\	.
.	.	8e\	.	[8g/	.	16gg\	.
.	.	.	.	.	.	16ee\JJ	.
.	.	4f#\	.	16g/LL]	.	4.dd#\)	.
.	.	.	.	(16g/	.	.	.
.	.	.	.	16cc/	.	.	.
.	.	.	.	16b/	.	.	.
.	.	16cc\LL)	.	16f#/)	.	.	.
.	.	16b\JJ	.	16a/JJ	.	.	.
=249	=249	=249	=249	=249	=249	=249	=249
4e\	.	4b\	.	4g/	.	(16ee\LL	.
.	.	.	.	.	.	16dd#\	.
.	.	.	.	.	.	16ee\	.
.	.	.	.	.	.	16ff#\	.
8r	.	8r	.	8r	.	16gg\	.
.	.	.	.	.	.	16b\JJ	.
4A\	.	4a\	.	4e/ 4cc/	.	16cc\LL	.
.	.	.	.	.	.	16ddn\	.
.	.	.	.	.	.	16ee\	.
.	.	.	.	.	.	16g#\	.
8r	.	8r	.	8r	.	16a\	.
.	.	.	.	.	.	16b\JJ)	.
=250	=250	=250	=250	=250	=250	=250	=250
2.r	.	2.r	.	2.r	.	(16cc/LL	.
.	.	.	.	.	.	16e/	.
.	.	.	.	.	.	16fn/	.
.	.	.	.	.	.	16g/	.
.	.	.	.	.	.	16a/	.
.	.	.	.	.	.	16c/JJ	.
.	.	.	.	.	.	16d/LL	.
.	.	.	.	.	.	16e/	.
.	.	.	.	.	.	16fn/	.
.	.	.	.	.	.	16g/	.
.	.	.	.	.	.	16a/	.
.	.	.	.	.	.	16b/JJ)	.
=251	=251	=251	=251	=251	=251	=251	=251
4r	.	4r	.	4r	.	(16cc\LL	.
.	.	.	.	.	.	16b\	.
.	.	.	.	.	.	16dd\	.
.	.	.	.	.	.	16cc\	.
8r	.	8r	.	8r	.	16b\	.
.	.	.	.	.	.	16a\JJ	.
8AA/	pp	16r	.	16r	pp	16g\LL	.
.	.	(16A/LL	pp	(16c/LL	.	16fn\	.
8r	.	16c/	.	16fn/	.	16e\	.
.	.	16A/	.	16c/	.	16fn\	.
(8AA/	.	16c/	.	16fn/	.	16a\	.
.	.	16A/JJ)	.	16c/JJ)	.	[16cc\JJ)	.
=252	=252	=252	=252	=252	=252	=252	=252
8BB/)	<	16r	<	16r	<	16cc/LL]	<
.	.	(16G/LL	.	(16B/LL	.	(16e/	.
8r	.	16B/	.	16e/	.	16d#/	.
.	.	16G/	.	16B/	.	16e/	.
(8BB/	.	16B/	.	16e/	.	16g/	.
.	.	16G/JJ)	.	16B/JJ)	.	[16b/JJ)	.
8AA/)	.	16r	.	16r	.	(16b/LL]	.
.	.	(16F#/LL	.	(16B/LL	.	16b/	.
8r	.	16B/	.	16d#/	.	16a#/	.
.	.	16F#/	.	16B/	.	16b/	.
(8AA/	.	16B/	.	16d#/	.	16dd#/	.
.	.	16F#/JJ)	.	16B/JJ)	.	[16ff#/JJ)	.
=253	=253	=253	=253	=253	=253	=253	=253
8GG/)	.	16r	.	16r	.	(16ff#\LL]	.
.	.	(16G/LL	.	(16B/LL	.	16ee\	.
8r	.	16B/	.	16e/	.	16dd#\	.
.	.	16G/	.	16B/	.	16ee\	.
(8GG/	.	16B/	.	16e/	.	16gg\	.
.	.	16G/JJ)	.	16B/JJ)	.	16bb\JJ)	.
8AA/)	.	16r	.	16r	.	16ccc'\LL	.
.	.	(16A/LL	.	(16fn/LL	.	(16ffn\	.
8r	.	16c/	.	16a/	.	16ee\	.
.	.	16A/	.	16f/	.	16ffn\	.
(8AA/	.	16c/	.	16a/	.	16aa\	.
.	.	16A/JJ)	.	16fn/JJ)	.	[16ccc\JJ)	.
=254	=254	=254	=254	=254	=254	=254	=254
8BB/)	.	16r	.	16r	.	(16ccc\LL]	.
.	.	(16G/LL	.	(16e/LL	.	16ee\	.
8r	.	16B/	.	16g/	.	16dd#\	.
.	.	16G/	.	16e/	.	16ee\	.
(8BB/	.	16B/	.	16g/	.	16gg\	.
.	.	16G/JJ)	.	16e/JJ)	.	[16bb\JJ)	.
8AA/)	.	16r	.	16r	.	(16bb\LL]	.
.	.	(16F#/LL	.	(16d#/LL	.	16dd#\	.
8r	.	16B/	.	16f#/	.	16cc#\	.
.	.	16F#/	.	16d#/	.	16dd#\	.
(8AA/	.	16B/	.	16f#/	.	16ff#\	.
.	.	16F#/JJ)	.	16d#/JJ)	.	[16bb\JJ)	.
=255	=255	=255	=255	=255	=255	=255	=255
8GG/)	.	16r	.	16r	.	(16bb\LL]	.
.	.	(16e\LL	.	(16g/LL	.	16ee\	.
8r	.	16g\	.	16b/	.	16dd#\	.
.	.	16e\	.	16g/	.	16ee\	.
(8GG/	.	16g\	.	16b/	.	16gg\	.
.	.	16e\JJ)	.	16g/JJ)	.	16bb\JJ)	.
8AA/)	.	16r	.	16r	.	16cccn\LL	.
.	.	(16c\LL	.	(16fn/LL	.	(16ffn\	.
8r	.	16fn\	.	16a/	.	16ee\	.
.	.	16c\	.	16f/	.	16ff\	.
(8AA/	.	16f\	.	16a/	.	16aa\	.
.	.	16c\JJ)	.	16f/JJ)	.	[16ccc\JJ)	.
=256	=256	=256	=256	=256	=256	=256	=256
8BB/L)	.	16r	.	16r	.	16ccc\LL]	.
.	.	(16B\LL	.	(16e/LL	.	16bb\	.
8BB/	.	16e\	.	16g/	.	16aa#\	.
.	.	16B\	.	16e/	.	16bb\	.
8BB/J	.	16e\	.	16g/	.	16eee\	.
.	.	16B\JJ)	.	16e/JJ)	.	16ggg\JJ	.
8BB/L	f	(16f#\LL	f	(16a/LL	f	4aaan\	f
.	.	16B\	.	16f#/	.	.	.
8BB/	.	16f#\	.	16a/	.	.	.
.	.	16B\	.	16f#/	.	.	.
8BB/J	.	16f#\	.	16a/	.	8dd#'\	.
.	.	16B\JJ)	.	16f#/JJ)	.	.	.
=257	=257	=257	=257	=257	=257	=257	=257
(8E\L	ff	(8e\L	ff	(8e/L	ff	(8ee\L	ff
8BB\	.	8B\	.	8B/	.	8b\	.
8G\J)	.	8g\J)	.	8g/J)	.	8gg\J)	.
[4.B\	.	[4.b\	.	[4.b\	.	[4.b\ [4.bb\	.
=258	=258	=258	=258	=258	=258	=258	=258
(16B\LL]	.	(16b\LL]	.	(16b/LL]	.	(16b\LL] 16bb\]	.
16c\	.	16cc\	.	16cc/	.	16ccc\	.
16A\	.	16a\	.	16a/	.	16aa\	.
16F#\	.	16f#\	.	16f#/	.	16ff#\	.
16D#\	.	16d#\	.	16d#/	.	16dd#\	.
16BB\JJ)	.	16B\JJ)	.	16B/JJ)	.	16b\JJ)	.
8E/L	>	8e\	>	8e/L	>	16ee'\LL	>
.	.	.	.	.	.	(16cc\	.
8EE/	.	(4A/	.	(8c/	.	16a\	.
.	.	.	.	.	.	16f#\JJ	.
8EE/J	.	.	.	[8B/J)	.	16d#/LL	.
.	.	.	.	.	.	16B/JJ)	.
=259	=259	=259	=259	=259	=259	=259	=259
8EE/L	.	(8G/)	.	8B/L]	.	(16e/LL	.
.	.	.	.	.	.	16cc/	p
8EE/	p	4A/	p	(8c/	p	16a/	.
.	.	.	.	.	.	16f#/	.
8EE/J	.	.	.	[8B/J)	.	16d#/	.
.	.	.	.	.	.	16B/JJ)	.
8EE/L	.	8G/	.	8B/L]	.	(16e/LL	.
.	.	.	.	.	.	16cc/	.
8EE/	.	4A/	.	(8c/	.	16a/	.
.	.	.	.	.	.	16f#/	.
8EE/J	.	.	.	[8B/J)	.	16d#/	.
.	.	.	.	.	.	16B/JJ)	.
=260	=260	=260	=260	=260	=260	=260	=260
4EE/	.	4G/)	.	4B/]	.	4e/	.
8r	.	8r	.	8r	.	8r	.
4EE/	.	4G/	.	4B/	.	4e/	.
8r	.	8r	.	8r	.	8r	.
=261	=261	=261	=261	=261	=261	=261	=261
4EE/	.	4E/	.	4B/	.	4G/ 4e/	.
8r	.	8r	.	8r	.	8r	.
4r	.	4r	.	4r	.	4r	.
8r	.	8r	.	8r	.	8r	.
==	==	==	==	==	==	==	==
*-	*-	*-	*-	*-	*-	*-	*-
!!!ENC: Craig Stuart Sapp
!!!END: 2004/09/13/
